;FLAVOR:Marlin
;TIME:10269
;Filament used: 11.4812m
;Layer height: 0.2
;MINX:13.064
;MINY:46.05
;MINZ:0.2
;MAXX:101.769
;MAXY:171.55
;MAXZ:31.2
;TARGET_MACHINE.NAME:Creality Ender-3 V3 SE
;Generated with Cura_SteamEngine 5.8.1
M82 ;absolute extrusion mode
M220 S100 ;Reset Feedrate
M221 S100 ;Reset Flowrate

G28 ;Home

M420 S1; Use saved mesh leveling data

G92 E0 ;Reset Extruder
G1 Z2.0 F3000 ;Move Z Axis up
G1 X-3 Y20 Z0.28 F5000.0 ;Move to start position
M190 S65 ; Set bed temperature and wait
M109 S205.0 ; Set hotend temperature and wait
G1 X-3 Y100.0 Z0.28 F1500.0 E15 ;Draw the first line
G1 X-2 Y100.0 Z0.28 F5000.0 ;Move to side a little
G1 X-2 Y20 Z0.28 F1500.0 E30 ;Draw the second line
G92 E0 ;Reset Extruder
G1 E-1.0000 F1800 ;Retract a bit
G1 Z2.0 F3000 ;Move Z Axis up
G1 E0.0000 F1800 

G92 E0
G92 E0
G1 F2400 E-0.8
;LAYER_COUNT:155
;LAYER:0
M107
G1 F300 Z0.4
G0 F9000 X19.963 Y48.951 Z0.4
;TYPE:SKIRT
G1 F300 Z0.2
G1 F2400 E0
G1 F1800 X20.462 Y48.779 E0.01756
G1 X22.437 Y48.558 E0.08365
G1 X46.465 Y48.61 E0.88283
G1 X48.044 Y48.839 E0.9359
G1 X50.403 Y50.108 E1.02499
G1 X56.86 Y56.565 E1.32871
G1 X58.148 Y58.95 E1.41886
G1 X58.37 Y60.677 E1.47677
G1 X58.409 Y122.45 E3.53135
G1 X76.272 Y122.45 E4.12548
G1 X76.272 Y64.129 E6.06524
G1 X75.799 Y63.328 E6.09618
G1 X75.596 Y62.848 E6.11352
G1 X75.32 Y61.007 E6.17543
G1 X75.272 Y54.478 E6.39259
G1 X75.714 Y52.649 E6.45518
G1 X76.802 Y50.543 E6.53402
G1 X78.32 Y49.14 E6.60277
G1 X80.077 Y48.091 E6.67083
G1 X81.14 Y47.798 E6.7075
G1 X82.385 Y47.618 E6.74934
G1 X83.187 Y46.997 E6.78308
G1 X85.753 Y46.05 E6.87405
G1 X90.877 Y46.05 E7.04448
G1 X92.763 Y46.513 E7.10907
G1 X94.574 Y47.448 E7.17686
G1 X94.726 Y47.556 E7.18306
G1 X94.931 Y47.574 E7.1899
G1 X96.728 Y48.015 E7.25145
G1 X98.742 Y49.065 E7.32699
G1 X100.22 Y50.645 E7.39895
G1 X101.242 Y52.369 E7.46561
G1 X101.445 Y52.851 E7.483
G1 X101.721 Y54.693 E7.54495
G1 X101.769 Y61.211 E7.76175
G1 X101.312 Y63.081 E7.82577
G1 X100.769 Y64.128 E7.865
G1 X100.709 Y159.606 E11.04061
G1 X100.48 Y161.185 E11.09368
G1 X99.211 Y163.544 E11.18277
G1 X92.745 Y170.01 E11.48691
G1 X90.554 Y171.184 E11.56959
G1 X90.159 Y171.315 E11.58343
G1 X87.969 Y171.55 E11.65669
G1 X24.991 Y171.489 E13.75135
G1 X23.422 Y171.259 E13.80409
G1 X21.082 Y170.004 E13.8924
G1 X14.604 Y163.526 E14.19711
G1 X13.43 Y161.335 E14.27978
G1 X13.299 Y160.94 E14.29363
G1 X13.064 Y158.75 E14.36688
G1 X13.124 Y57.244 E17.74299
G1 X13.353 Y55.665 E17.79606
G1 X14.622 Y53.306 E17.88515
G1 X17.838 Y50.09 E18.03642
G1 X19.963 Y48.951 E18.11661
G0 F9000 X20.152 Y49.304
G1 F1800 X20.545 Y49.173 E18.13039
G1 X22.482 Y48.956 E18.19522
G1 X46.408 Y49.006 E18.991
G1 X47.918 Y49.225 E19.04175
G1 X50.16 Y50.431 E19.12642
G1 X56.536 Y56.807 E19.42633
G1 X57.76 Y59.074 E19.51202
G1 X57.973 Y60.728 E19.56748
G1 X58.009 Y122.85 E21.63367
G1 X76.672 Y122.85 E22.2544
G1 X76.672 Y64.018 E24.21116
G1 X76.168 Y63.173 E24.24389
G1 X75.985 Y62.739 E24.25955
G1 X75.716 Y60.948 E24.31979
G1 X75.672 Y54.525 E24.53343
G1 X76.092 Y52.788 E24.59286
G1 X77.125 Y50.789 E24.6677
G1 X78.562 Y49.461 E24.73278
G1 X80.233 Y48.463 E24.79752
G1 X81.246 Y48.184 E24.83246
G1 X82.546 Y47.999 E24.87614
G1 X83.383 Y47.351 E24.91135
G1 X85.824 Y46.45 E24.99789
G1 X90.831 Y46.45 E25.16442
G1 X92.62 Y46.889 E25.22569
G1 X94.39 Y47.803 E25.29194
G1 X94.58 Y47.949 E25.29991
G1 X94.836 Y47.962 E25.30844
G1 X96.583 Y48.391 E25.36827
G1 X98.498 Y49.389 E25.4401
G1 X99.896 Y50.884 E25.50817
G1 X100.873 Y52.524 E25.57166
G1 X101.056 Y52.959 E25.58736
G1 X101.325 Y54.752 E25.64766
G1 X101.369 Y61.163 E25.8609
G1 X100.934 Y62.942 E25.92181
G1 X100.369 Y64.031 E25.96262
G1 X100.313 Y159.549 E29.13956
G1 X100.094 Y161.059 E29.19031
G1 X98.888 Y163.301 E29.27498
G1 X92.504 Y169.685 E29.57526
G1 X90.365 Y170.831 E29.65598
G1 X90.075 Y170.921 E29.66607
G1 X87.969 Y171.15 E29.73653
G1 X25.049 Y171.093 E31.82926
G1 X23.547 Y170.873 E31.87975
G1 X21.325 Y169.681 E31.96362
G1 X14.929 Y163.285 E32.26447
G1 X13.783 Y161.146 E32.34518
G1 X13.693 Y160.856 E32.35528
G1 X13.464 Y158.75 E32.42574
G1 X13.52 Y57.301 E35.79994
G1 X13.739 Y55.791 E35.85069
G1 X14.945 Y53.549 E35.93536
G1 X18.079 Y50.415 E36.08278
G1 X20.152 Y49.304 E36.161
G0 F9000 X20.341 Y49.657
G1 F1800 X20.629 Y49.567 E36.17104
G1 X22.527 Y49.354 E36.23456
G1 X46.351 Y49.402 E37.02696
G1 X47.792 Y49.611 E37.07538
G1 X49.917 Y50.754 E37.15564
G1 X56.212 Y57.049 E37.45174
G1 X57.372 Y59.198 E37.53296
G1 X57.576 Y60.779 E37.58598
G1 X57.609 Y123.25 E39.66377
G1 X77.072 Y123.25 E40.31112
G1 X77.072 Y63.907 E42.28487
G1 X76.512 Y62.968 E42.32124
G1 X76.374 Y62.631 E42.33335
G1 X76.112 Y60.889 E42.39194
G1 X76.072 Y54.572 E42.60205
G1 X76.47 Y52.928 E42.65831
G1 X77.447 Y51.037 E42.7291
G1 X78.807 Y49.78 E42.7907
G1 X80.389 Y48.835 E42.85199
G1 X81.352 Y48.57 E42.88521
G1 X82.707 Y48.38 E42.93071
G1 X83.58 Y47.704 E42.96744
G1 X85.894 Y46.85 E43.04948
G1 X90.785 Y46.85 E43.21215
G1 X92.479 Y47.266 E43.27017
G1 X94.207 Y48.158 E43.33485
G1 X94.433 Y48.349 E43.34469
G1 X94.741 Y48.35 E43.35493
G1 X96.438 Y48.767 E43.41305
G1 X98.254 Y49.713 E43.48116
G1 X99.572 Y51.123 E43.54535
G1 X100.529 Y52.729 E43.60753
G1 X100.667 Y53.066 E43.61965
G1 X100.929 Y54.811 E43.67834
G1 X100.969 Y61.114 E43.88798
G1 X100.556 Y62.803 E43.94581
G1 X99.969 Y63.934 E43.98819
G1 X99.917 Y159.492 E47.16646
G1 X99.708 Y160.933 E47.21489
G1 X98.565 Y163.058 E47.29515
G1 X92.263 Y169.36 E47.59157
G1 X90.176 Y170.478 E47.67032
G1 X90.031 Y170.523 E47.67537
G1 X87.969 Y170.75 E47.74437
G1 X25.107 Y170.697 E49.83517
G1 X23.675 Y170.487 E49.8833
G1 X21.566 Y169.356 E49.9629
G1 X15.254 Y163.044 E50.2598
G1 X14.136 Y160.957 E50.33854
G1 X14.091 Y160.812 E50.34359
G1 X13.864 Y158.75 E50.41259
G1 X13.916 Y57.358 E53.7849
G1 X14.125 Y55.917 E53.83333
G1 X15.268 Y53.792 E53.91358
G1 X18.32 Y50.74 E54.05714
G1 X20.341 Y49.657 E54.1334
G0 F9000 X20.53 Y50.01
G1 F1800 X20.674 Y49.965 E54.13842
G1 X22.572 Y49.752 E54.20194
G1 X46.294 Y49.798 E54.99094
G1 X47.666 Y49.997 E55.03705
G1 X49.674 Y51.077 E55.11289
G1 X55.888 Y57.291 E55.40517
G1 X56.984 Y59.322 E55.48193
G1 X57.179 Y60.83 E55.53251
G1 X57.209 Y123.65 E57.62191
G1 X77.472 Y123.65 E58.29586
G1 X77.472 Y63.796 E60.28661
G1 X76.856 Y62.763 E60.32661
G1 X76.761 Y62.52 E60.33529
G1 X76.512 Y60.886 E60.39027
G1 X76.472 Y54.619 E60.59871
G1 X76.848 Y53.068 E60.65179
G1 X77.77 Y51.283 E60.71861
G1 X79.049 Y50.101 E60.77654
G1 X80.547 Y49.206 E60.83458
G1 X81.408 Y48.966 E60.86431
G1 X82.868 Y48.761 E60.91334
G1 X83.776 Y48.058 E60.95154
G1 X85.965 Y47.25 E61.02914
G1 X90.739 Y47.25 E61.18793
G1 X92.336 Y47.642 E61.24262
G1 X94.023 Y48.513 E61.30577
G1 X94.273 Y48.749 E61.3172
G1 X94.694 Y48.75 E61.3312
G1 X96.293 Y49.143 E61.38597
G1 X98.01 Y50.037 E61.45036
G1 X99.248 Y51.362 E61.51067
G1 X100.185 Y52.934 E61.57154
G1 X100.28 Y53.177 E61.58021
G1 X100.529 Y54.814 E61.63529
G1 X100.569 Y61.065 E61.8432
G1 X100.178 Y62.664 E61.89795
G1 X99.569 Y63.837 E61.94191
G1 X99.521 Y159.435 E65.12151
G1 X99.322 Y160.807 E65.16762
G1 X98.242 Y162.815 E65.24346
G1 X92.022 Y169.035 E65.53603
G1 X89.987 Y170.125 E65.61281
G1 X87.969 Y170.35 E65.68034
G1 X25.165 Y170.301 E67.76921
G1 X23.8 Y170.101 E67.8151
G1 X21.809 Y169.033 E67.89024
G1 X15.579 Y162.803 E68.18328
G1 X14.489 Y160.768 E68.26007
G1 X14.264 Y158.75 E68.3276
G1 X14.312 Y57.415 E71.69802
G1 X14.511 Y56.043 E71.74413
G1 X15.591 Y54.035 E71.81996
G1 X18.561 Y51.065 E71.95966
G1 X20.53 Y50.01 E72.03396
G0 F9000 X20.719 Y50.363
G1 F1800 X22.617 Y50.15 E72.09748
G1 X46.237 Y50.194 E72.88309
G1 X47.54 Y50.383 E72.92688
G1 X49.431 Y51.4 E72.99829
G1 X55.564 Y57.533 E73.28677
G1 X56.596 Y59.446 E73.35907
G1 X56.782 Y60.881 E73.40719
G1 X56.809 Y124.05 E75.5082
G1 X77.872 Y124.05 E76.20876
G1 X77.872 Y63.685 E78.21651
G1 X77.2 Y62.558 E78.26015
G1 X77.149 Y62.415 E78.2652
G1 X76.912 Y60.883 E78.31676
G1 X76.872 Y54.666 E78.52354
G1 X77.226 Y53.208 E78.57345
G1 X78.092 Y51.531 E78.63622
G1 X79.294 Y50.42 E78.69066
G1 X80.704 Y49.578 E78.74528
G1 X81.464 Y49.362 E78.77156
G1 X82.867 Y49.162 E78.8187
G1 X83.012 Y49.155 E78.82353
G1 X83.973 Y48.411 E78.86395
G1 X86.035 Y47.65 E78.93705
G1 X90.693 Y47.65 E79.09198
G1 X92.193 Y48.018 E79.14335
G1 X93.839 Y48.868 E79.20496
G1 X94.097 Y49.148 E79.21763
G1 X94.647 Y49.15 E79.23592
G1 X96.148 Y49.519 E79.28733
G1 X97.766 Y50.361 E79.348
G1 X98.924 Y51.601 E79.40443
G1 X99.841 Y53.139 E79.46398
G1 X99.892 Y53.282 E79.46903
G1 X100.129 Y54.817 E79.52069
G1 X100.169 Y61.016 E79.72688
G1 X99.8 Y62.525 E79.77854
G1 X99.169 Y63.739 E79.82405
G1 X99.125 Y159.378 E83.00502
G1 X98.936 Y160.681 E83.04881
G1 X97.919 Y162.572 E83.12022
G1 X91.781 Y168.71 E83.40894
G1 X89.864 Y169.737 E83.48127
G1 X87.969 Y169.95 E83.54469
G1 X25.223 Y169.905 E85.63163
G1 X23.928 Y169.715 E85.67517
G1 X22.05 Y168.708 E85.74604
G1 X15.904 Y162.562 E86.03513
G1 X14.877 Y160.645 E86.10746
G1 X14.664 Y158.75 E86.17089
G1 X14.708 Y57.472 E89.53941
G1 X14.897 Y56.169 E89.5832
G1 X15.914 Y54.278 E89.65462
G1 X18.802 Y51.39 E89.79046
G1 X20.719 Y50.363 E89.86279
G0 F9000 X20.842 Y50.751
G1 F1800 X22.616 Y50.55 E89.92217
G1 X46.18 Y50.59 E90.70591
G1 X47.414 Y50.769 E90.74739
G1 X49.188 Y51.723 E90.81438
G1 X55.24 Y57.775 E91.09905
G1 X56.208 Y59.57 E91.16688
G1 X56.385 Y60.933 E91.21259
G1 X56.409 Y124.45 E93.32518
G1 X78.272 Y124.45 E94.05234
G1 X78.272 Y63.574 E96.07709
G1 X77.544 Y62.353 E96.12437
G1 X77.312 Y60.88 E96.17396
G1 X77.272 Y54.714 E96.37905
G1 X77.605 Y53.345 E96.42591
G1 X78.414 Y51.778 E96.48457
G1 X79.536 Y50.741 E96.53538
G1 X80.862 Y49.949 E96.58675
G1 X81.52 Y49.758 E96.60954
G1 X82.923 Y49.558 E96.65668
G1 X83.153 Y49.552 E96.66433
G1 X84.169 Y48.765 E96.70707
G1 X86.106 Y48.05 E96.77575
G1 X90.647 Y48.05 E96.92678
G1 X92.052 Y48.395 E96.9749
G1 X93.59 Y49.189 E97.03247
G1 X93.921 Y49.547 E97.04869
G1 X94.599 Y49.55 E97.07124
G1 X96.005 Y49.896 E97.1194
G1 X97.521 Y50.684 E97.17622
G1 X98.6 Y51.84 E97.22882
G1 X99.497 Y53.344 E97.28706
G1 X99.729 Y54.82 E97.33676
G1 X99.769 Y60.967 E97.54121
G1 X99.422 Y62.384 E97.58973
G1 X98.769 Y63.64 E97.63682
G1 X98.729 Y159.321 E100.81918
G1 X98.55 Y160.555 E100.86065
G1 X97.596 Y162.329 E100.92765
G1 X91.54 Y168.385 E101.2125
G1 X89.741 Y169.349 E101.28039
G1 X87.969 Y169.55 E101.3397
G1 X25.281 Y169.509 E103.42471
G1 X24.053 Y169.329 E103.46599
G1 X22.293 Y168.385 E103.53242
G1 X16.229 Y162.321 E103.81765
G1 X15.265 Y160.522 E103.88554
G1 X15.064 Y158.75 E103.94485
G1 X15.104 Y57.529 E107.31148
G1 X15.283 Y56.295 E107.35295
G1 X16.237 Y54.521 E107.41994
G1 X19.043 Y51.715 E107.55193
G1 X20.842 Y50.751 E107.61981
G0 F9000 X20.965 Y51.139
G1 F1800 X22.615 Y50.95 E107.67505
G1 X46.123 Y50.986 E108.45693
G1 X47.288 Y51.155 E108.49608
G1 X48.945 Y52.046 E108.55866
G1 X54.916 Y58.017 E108.83952
G1 X55.82 Y59.694 E108.90288
G1 X55.988 Y60.985 E108.94618
G1 X56.009 Y124.85 E111.07034
G1 X78.672 Y124.85 E111.82411
G1 X78.672 Y63.463 E113.86585
G1 X77.927 Y62.214 E113.91423
G1 X77.712 Y60.877 E113.95927
G1 X77.672 Y54.762 E114.16266
G1 X77.984 Y53.482 E114.20647
G1 X78.736 Y52.025 E114.26101
G1 X79.778 Y51.062 E114.3082
G1 X81.023 Y50.318 E114.35644
G1 X81.576 Y50.154 E114.37562
G1 X82.979 Y49.954 E114.42276
G1 X83.291 Y49.951 E114.43314
G1 X84.366 Y49.118 E114.47837
G1 X86.176 Y48.45 E114.54254
G1 X90.601 Y48.45 E114.68972
G1 X91.909 Y48.771 E114.73451
G1 X93.344 Y49.512 E114.78823
G1 X93.745 Y49.946 E114.80788
G1 X94.552 Y49.95 E114.83472
G1 X95.862 Y50.272 E114.87959
G1 X97.276 Y51.007 E114.93259
G1 X98.276 Y52.079 E114.98135
G1 X99.114 Y53.484 E115.03576
G1 X99.329 Y54.823 E115.08087
G1 X99.369 Y60.918 E115.28359
G1 X99.044 Y62.244 E115.329
G1 X98.44 Y63.412 E115.37274
G1 X98.369 Y63.516 E115.37693
G1 X98.333 Y159.264 E118.56152
G1 X98.164 Y160.429 E118.60067
G1 X97.273 Y162.086 E118.66325
G1 X91.299 Y168.06 E118.94424
G1 X89.618 Y168.961 E119.00768
G1 X87.969 Y169.15 E119.06288
G1 X25.339 Y169.113 E121.14597
G1 X24.178 Y168.943 E121.18499
G1 X22.536 Y168.062 E121.24697
G1 X16.554 Y162.08 E121.52835
G1 X15.653 Y160.399 E121.59178
G1 X15.464 Y158.75 E121.64699
G1 X15.5 Y57.586 E125.01171
G1 X15.669 Y56.421 E125.05087
G1 X16.56 Y54.764 E125.11344
G1 X19.284 Y52.04 E125.24157
G1 X20.965 Y51.139 E125.30501
G0 F9000 X21.088 Y51.527
G1 F1800 X22.614 Y51.35 E125.3561
G1 X46.066 Y51.382 E126.13612
G1 X47.162 Y51.541 E126.17295
G1 X48.702 Y52.369 E126.23111
G1 X54.592 Y58.259 E126.50816
G1 X55.432 Y59.818 E126.56706
G1 X55.591 Y61.037 E126.60794
G1 X55.609 Y125.25 E128.74368
G1 X79.072 Y125.25 E129.52406
G1 X79.072 Y63.354 E131.58273
G1 X78.31 Y62.077 E131.63219
G1 X78.112 Y60.874 E131.67274
G1 X78.072 Y54.811 E131.8744
G1 X78.362 Y53.621 E131.91514
G1 X79.059 Y52.271 E131.96567
G1 X80.02 Y51.383 E132.00919
G1 X81.182 Y50.688 E132.05422
G1 X81.689 Y50.538 E132.07181
G1 X82.983 Y50.354 E132.11528
G1 X83.429 Y50.349 E132.13012
G1 X84.562 Y49.472 E132.17777
G1 X86.247 Y48.85 E132.23751
G1 X90.555 Y48.85 E132.38079
G1 X91.766 Y49.147 E132.42227
G1 X93.096 Y49.834 E132.47205
G1 X93.569 Y50.345 E132.49521
G1 X94.504 Y50.35 E132.52631
G1 X95.72 Y50.649 E132.56796
G1 X97.029 Y51.329 E132.61702
G1 X97.957 Y52.324 E132.66228
G1 X98.731 Y53.621 E132.71251
G1 X98.929 Y54.826 E132.75313
G1 X98.969 Y60.873 E132.95426
G1 X98.668 Y62.101 E132.99631
G1 X98.085 Y63.228 E133.03851
G1 X97.969 Y63.383 E133.04495
G1 X97.937 Y159.207 E136.23207
G1 X97.778 Y160.303 E136.26891
G1 X96.95 Y161.843 E136.32706
G1 X91.058 Y167.735 E136.6042
G1 X89.495 Y168.573 E136.66319
G1 X87.969 Y168.75 E136.71428
G1 X25.397 Y168.717 E138.79544
G1 X24.306 Y168.557 E138.83211
G1 X22.777 Y167.737 E138.88982
G1 X16.879 Y161.839 E139.16724
G1 X16.041 Y160.276 E139.22623
G1 X15.864 Y158.75 E139.27732
G1 X15.896 Y57.643 E142.64016
G1 X16.055 Y56.547 E142.67699
G1 X16.883 Y55.007 E142.73514
G1 X19.525 Y52.365 E142.85942
G1 X21.088 Y51.527 E142.9184
G0 F9000 X21.209 Y51.915
G1 F1800 X22.614 Y51.75 E142.96545
G1 X46.009 Y51.778 E143.74358
G1 X47.036 Y51.927 E143.77809
G1 X48.459 Y52.692 E143.83183
G1 X54.268 Y58.501 E144.10506
G1 X55.044 Y59.942 E144.1595
G1 X55.194 Y61.089 E144.19797
G1 X55.209 Y125.65 E146.34528
G1 X79.472 Y125.65 E147.15227
G1 X79.472 Y63.195 E149.22953
G1 X79.362 Y63.06 E149.23533
G1 X78.693 Y61.939 E149.27875
G1 X78.507 Y60.809 E149.31683
G1 X78.472 Y54.86 E149.5147
G1 X78.741 Y53.758 E149.55243
G1 X79.38 Y52.52 E149.59877
G1 X80.265 Y51.702 E149.63885
G1 X81.341 Y51.058 E149.68056
G1 X81.802 Y50.922 E149.69655
G1 X82.987 Y50.754 E149.73635
G1 X83.625 Y50.747 E149.75758
G1 X83.754 Y50.603 E149.76401
G1 X84.759 Y49.825 E149.80628
G1 X86.317 Y49.25 E149.86151
G1 X90.505 Y49.25 E150.00081
G1 X91.627 Y49.525 E150.03923
G1 X92.85 Y50.157 E150.08502
G1 X93.394 Y50.744 E150.11163
G1 X94.456 Y50.75 E150.14696
G1 X95.578 Y51.026 E150.18539
G1 X96.782 Y51.651 E150.23051
G1 X97.635 Y52.566 E150.27211
G1 X98.348 Y53.761 E150.3184
G1 X98.534 Y54.891 E150.35649
G1 X98.569 Y60.828 E150.55395
G1 X98.292 Y61.958 E150.59265
G1 X97.73 Y63.044 E150.63332
G1 X97.569 Y63.239 E150.64173
G1 X97.541 Y159.15 E153.83175
G1 X97.392 Y160.177 E153.86626
G1 X96.627 Y161.6 E153.92
G1 X90.815 Y167.412 E154.19338
G1 X89.374 Y168.185 E154.24776
G1 X87.969 Y168.35 E154.29482
G1 X25.455 Y168.321 E156.37404
G1 X24.431 Y168.171 E156.40846
G1 X23.02 Y167.414 E156.46172
G1 X17.202 Y161.596 E156.73538
G1 X16.429 Y160.155 E156.78977
G1 X16.264 Y158.75 E156.83682
G1 X16.292 Y57.7 E160.19776
G1 X16.441 Y56.673 E160.23227
G1 X17.206 Y55.25 E160.28601
G1 X19.768 Y52.688 E160.40652
G1 X21.209 Y51.915 E160.4609
G0 F9000 X21.333 Y52.303
G1 F1800 X22.614 Y52.15 E160.50381
G1 X45.952 Y52.174 E161.28004
G1 X46.91 Y52.313 E161.31224
G1 X48.216 Y53.015 E161.36155
G1 X53.944 Y58.743 E161.63098
G1 X54.656 Y60.066 E161.68095
G1 X54.797 Y61.141 E161.71701
G1 X54.809 Y126.05 E163.87589
G1 X79.872 Y126.05 E164.70949
G1 X79.872 Y63.046 E166.80501
G1 X79.706 Y62.855 E166.81343
G1 X79.076 Y61.799 E166.85433
G1 X78.902 Y60.744 E166.88989
G1 X78.872 Y54.909 E167.08397
G1 X79.119 Y53.897 E167.11861
G1 X79.703 Y52.766 E167.16095
