;FLAVOR:Marlin
;TIME:3964
;Filament used: 3.11493m
;Layer height: 0.2
;MINX:8.898
;MINY:75.214
;MINZ:0.2
;MAXX:78.634
;MAXY:146.026
;MAXZ:8.2
;TARGET_MACHINE.NAME:Creality Ender-3 V3 SE
;Generated with Cura_SteamEngine 5.8.1
M82 ;absolute extrusion mode
M220 S100 ;Reset Feedrate
M221 S100 ;Reset Flowrate

G28 ;Home

M420 S1; Use saved mesh leveling data

G92 E0 ;Reset Extruder
G1 Z2.0 F3000 ;Move Z Axis up
G1 X-3 Y20 Z0.28 F5000.0 ;Move to start position
M190 S65 ; Set bed temperature and wait
M109 S205.0 ; Set hotend temperature and wait
G1 X-3 Y100.0 Z0.28 F1500.0 E15 ;Draw the first line
G1 X-2 Y100.0 Z0.28 F5000.0 ;Move to side a little
G1 X-2 Y20 Z0.28 F1500.0 E30 ;Draw the second line
G92 E0 ;Reset Extruder
G1 E-1.0000 F1800 ;Retract a bit
G1 Z2.0 F3000 ;Move Z Axis up
G1 E0.0000 F1800 

G92 E0
G92 E0
G1 F2400 E-0.8
;LAYER_COUNT:40
;LAYER:0
M107
G1 F300 Z0.4
G0 F9000 X24.148 Y75.529 Z0.4
;TYPE:SKIRT
G1 F300 Z0.2
G1 F2400 E0
G1 F1800 X26.402 Y75.306 E0.07533
G1 X29.319 Y76.065 E0.17558
G1 X31.36 Y75.519 E0.24586
G1 X32.769 Y75.422 E0.29283
G1 X34.509 Y75.725 E0.35157
G1 X35.099 Y75.544 E0.3721
G1 X37.361 Y75.322 E0.4477
G1 X39.484 Y75.89 E0.52079
G1 X41.258 Y75.39 E0.58209
G1 X43.483 Y75.228 E0.65629
G1 X45.287 Y75.737 E0.71864
G1 X46.575 Y75.376 E0.76313
G1 X48.787 Y75.214 E0.83689
G1 X50.556 Y75.713 E0.89803
G1 X51.341 Y75.493 E0.92514
G1 X53.558 Y75.331 E0.99908
G1 X55.815 Y75.968 E1.07708
G1 X57.132 Y75.597 E1.12259
G1 X59.365 Y75.435 E1.19705
G1 X61.545 Y76.05 E1.27239
G1 X62.133 Y75.885 E1.2927
G1 X64.345 Y75.723 E1.36647
G1 X67.634 Y76.649 E1.48012
G1 X69.571 Y77.705 E1.55349
G1 X71.754 Y80.011 E1.65911
G1 X72.784 Y81.63 E1.72293
G1 X73.635 Y84.529 E1.82342
G1 X73.812 Y86.717 E1.89643
G1 X73.775 Y86.938 E1.90388
G1 X74.181 Y87.157 E1.91922
G1 X76.455 Y89.517 E2.02823
G1 X77.535 Y91.173 E2.09398
G1 X78.634 Y94.84 E2.22131
G1 X78.472 Y97.184 E2.29946
G1 X77.67 Y100.019 E2.39745
G1 X76.646 Y101.887 E2.4683
G1 X74.238 Y104.235 E2.58017
G1 X72.761 Y105.169 E2.63829
G1 X72.998 Y105.964 E2.66588
G1 X73.181 Y108.225 E2.74133
G1 X72.347 Y111.179 E2.84342
G1 X71.986 Y111.864 E2.86917
G1 X72.042 Y112.084 E2.87672
G1 X72.222 Y114.242 E2.94875
G1 X71.24 Y117.744 E3.06972
G1 X70.831 Y118.518 E3.09883
G1 X71.406 Y119.431 E3.13472
G1 X72.301 Y122.518 E3.24162
G1 X72.393 Y123.686 E3.28059
G1 X72.56 Y123.978 E3.29178
G1 X73.437 Y126.992 E3.39618
G1 X73.62 Y129.222 E3.4706
G1 X73.304 Y130.34 E3.50924
G1 X73.88 Y132.298 E3.57713
G1 X74.063 Y134.545 E3.65211
G1 X73.056 Y138.113 E3.77542
G1 X72.093 Y139.939 E3.84408
G1 X69.691 Y142.341 E3.95706
G1 X67.89 Y143.5 E4.02829
G1 X64.599 Y144.411 E4.14187
G1 X63.131 Y144.51 E4.19081
G1 X62.462 Y144.936 E4.21719
G1 X58.618 Y146.026 E4.35008
G1 X56.358 Y145.843 E4.42549
G1 X53.645 Y145.044 E4.51956
G1 X51.056 Y145.761 E4.60891
G1 X48.853 Y145.922 E4.68238
G1 X45.377 Y144.918 E4.80272
G1 X44.463 Y144.432 E4.83715
G1 X43.744 Y144.903 E4.86573
G1 X40.423 Y145.82 E4.98033
G1 X38.076 Y145.962 E5.05853
G1 X34.691 Y144.977 E5.17578
G1 X32.94 Y144.032 E5.24196
G1 X32.757 Y143.873 E5.25003
G1 X30.979 Y144.365 E5.31139
G1 X28.702 Y144.526 E5.38731
G1 X28.1 Y144.351 E5.40816
G1 X26.215 Y144.873 E5.47321
G1 X23.953 Y145.034 E5.54864
G1 X20.491 Y144.022 E5.6686
G1 X18.675 Y143.043 E5.73722
G1 X16.235 Y140.603 E5.85199
G1 X15.105 Y138.843 E5.92156
G1 X14.171 Y135.657 E6.03198
G1 X14.008 Y133.293 E6.1108
G1 X15.007 Y129.896 E6.22857
G1 X15.661 Y128.638 E6.27572
G1 X15.622 Y128.456 E6.28191
G1 X15.465 Y126.223 E6.35637
G1 X16.419 Y122.934 E6.47027
G1 X16.503 Y122.746 E6.47712
G1 X16.065 Y121.263 E6.52855
G1 X15.902 Y118.929 E6.60637
G1 X16.602 Y116.511 E6.69009
G1 X16.23 Y115.241 E6.73411
G1 X16.131 Y113.823 E6.78139
G1 X15.323 Y112.577 E6.83078
G1 X14.578 Y110.059 E6.91812
G1 X14.415 Y107.661 E6.99806
G1 X14.935 Y105.892 E7.05938
G1 X14.904 Y105.469 E7.07349
G1 X13.489 Y104.707 E7.12694
G1 X11.095 Y102.313 E7.23955
G1 X9.987 Y100.603 E7.30732
G1 X9.061 Y97.468 E7.41605
G1 X8.898 Y95.081 E7.49562
G1 X9.874 Y91.76 E7.61075
G1 X10.761 Y90.059 E7.67456
G1 X13.015 Y87.68 E7.78356
G1 X14.819 Y86.407 E7.85699
G1 X15.325 Y86.265 E7.87447
G1 X15.228 Y84.799 E7.92334
G1 X16.22 Y81.675 E8.03236
G1 X17.054 Y79.985 E8.09504
G1 X19.343 Y77.626 E8.20436
G1 X21.226 Y76.421 E8.27872
G1 X24.148 Y75.529 E8.38033
G0 F9000 X24.23 Y75.923
G1 F1800 X26.37 Y75.711 E8.45186
G1 X29.32 Y76.478 E8.55324
G1 X31.424 Y75.915 E8.62568
G1 X32.748 Y75.824 E8.66982
G1 X34.534 Y76.135 E8.73012
G1 X35.176 Y75.938 E8.75245
G1 X37.329 Y75.727 E8.8244
G1 X39.488 Y76.305 E8.89874
G1 X41.328 Y75.786 E8.96233
G1 X43.442 Y75.632 E9.03283
G1 X45.286 Y76.152 E9.09655
G1 X46.643 Y75.772 E9.14342
G1 X48.746 Y75.618 E9.21355
G1 X50.555 Y76.128 E9.27607
G1 X51.409 Y75.889 E9.30556
G1 X53.517 Y75.735 E9.37586
G1 X55.815 Y76.384 E9.45528
G1 X57.202 Y75.993 E9.50321
G1 X59.324 Y75.839 E9.57398
G1 X61.544 Y76.465 E9.65069
G1 X62.201 Y76.281 E9.67338
G1 X64.305 Y76.127 E9.74355
G1 X67.483 Y77.022 E9.85336
G1 X69.322 Y78.024 E9.92302
G1 X71.439 Y80.261 E10.02546
G1 X72.415 Y81.795 E10.08593
G1 X73.239 Y84.602 E10.18323
G1 X73.413 Y86.749 E10.25487
G1 X73.302 Y87.137 E10.2683
G1 X73.935 Y87.479 E10.29223
G1 X76.143 Y89.77 E10.39805
G1 X77.168 Y91.342 E10.46047
G1 X78.23 Y94.885 E10.58349
G1 X78.076 Y97.114 E10.65781
G1 X77.297 Y99.867 E10.75297
G1 X76.323 Y101.644 E10.82037
G1 X73.991 Y103.918 E10.9287
G1 X72.46 Y104.886 E10.98895
G1 X72.282 Y104.959 E10.99534
G1 X72.602 Y106.035 E11.03268
G1 X72.776 Y108.186 E11.10446
G1 X71.974 Y111.029 E11.20271
G1 X71.556 Y111.821 E11.23249
G1 X71.643 Y112.117 E11.24275
G1 X71.817 Y114.205 E11.31244
G1 X70.867 Y117.593 E11.42947
G1 X70.369 Y118.536 E11.46494
G1 X71.038 Y119.599 E11.50672
G1 X71.905 Y122.587 E11.6102
G1 X72.002 Y123.814 E11.65114
G1 X72.176 Y124.09 E11.66199
G1 X73.041 Y127.063 E11.76497
G1 X73.215 Y129.183 E11.83572
G1 X72.887 Y130.343 E11.87581
G1 X73.484 Y132.371 E11.94613
G1 X73.658 Y134.506 E12.01737
G1 X72.683 Y137.963 E12.13684
G1 X71.767 Y139.699 E12.20212
G1 X69.438 Y142.028 E12.31167
G1 X67.726 Y143.13 E12.37939
G1 X64.528 Y144.015 E12.48975
G1 X63.003 Y144.118 E12.54059
G1 X62.298 Y144.567 E12.56839
G1 X58.579 Y145.621 E12.69696
G1 X56.431 Y145.447 E12.76863
G1 X53.788 Y144.671 E12.86025
G1 X53.673 Y144.622 E12.86441
G1 X50.99 Y145.365 E12.957
G1 X48.894 Y145.518 E13.0269
G1 X45.529 Y144.546 E13.1434
G1 X44.441 Y143.968 E13.18438
G1 X43.577 Y144.534 E13.21873
G1 X40.354 Y145.424 E13.32994
G1 X38.122 Y145.559 E13.40431
G1 X34.844 Y144.605 E13.51786
G1 X33.13 Y143.68 E13.58264
G1 X32.877 Y143.425 E13.59459
G1 X30.913 Y143.969 E13.66237
G1 X28.744 Y144.122 E13.73469
G1 X28.103 Y143.936 E13.75689
G1 X26.149 Y144.477 E13.82433
G1 X23.996 Y144.63 E13.89612
G1 X20.644 Y143.65 E14.01227
G1 X18.917 Y142.719 E14.07753
G1 X16.549 Y140.351 E14.18891
G1 X15.472 Y138.674 E14.2552
G1 X14.567 Y135.586 E14.36223
G1 X14.412 Y133.338 E14.43717
G1 X15.38 Y130.046 E14.5513
G1 X16.087 Y128.687 E14.60225
G1 X16.021 Y128.428 E14.61114
G1 X15.869 Y126.265 E14.68326
G1 X16.803 Y123.045 E14.79477
G1 X16.931 Y122.781 E14.80453
G1 X16.461 Y121.19 E14.85971
G1 X16.306 Y118.971 E14.93369
G1 X17.019 Y116.509 E15.01894
G1 X16.626 Y115.169 E15.06539
G1 X16.523 Y113.691 E15.11467
G1 X15.691 Y112.408 E15.16553
G1 X14.974 Y109.985 E15.24957
G1 X14.819 Y107.706 E15.32554
G1 X15.34 Y105.935 E15.38694
G1 X15.286 Y105.221 E15.41076
G1 X13.731 Y104.383 E15.46951
G1 X11.409 Y102.061 E15.57873
G1 X10.354 Y100.433 E15.64325
G1 X9.457 Y97.395 E15.74861
G1 X9.302 Y95.126 E15.82425
G1 X10.247 Y91.911 E15.93571
G1 X11.091 Y90.292 E15.99644
G1 X13.275 Y87.986 E16.10207
G1 X14.995 Y86.773 E16.17207
G1 X15.746 Y86.563 E16.19801
G1 X15.632 Y84.848 E16.25518
G1 X16.579 Y81.852 E16.35968
G1 X17.385 Y80.219 E16.42025
G1 X19.598 Y77.938 E16.52596
G1 X21.395 Y76.788 E16.59692
G1 X24.23 Y75.923 E16.6955
G0 F9000 X24.312 Y76.317
G1 F1800 X26.338 Y76.116 E16.76322
G1 X29.321 Y76.891 E16.86573
G1 X31.488 Y76.311 E16.94034
G1 X32.727 Y76.226 E16.98164
G1 X34.559 Y76.545 E17.04349
G1 X35.253 Y76.332 E17.06764
G1 X37.296 Y76.132 E17.13591
G1 X39.491 Y76.72 E17.21149
G1 X41.398 Y76.182 E17.2774
G1 X43.401 Y76.036 E17.34419
G1 X45.285 Y76.567 E17.4093
G1 X46.711 Y76.168 E17.45855
G1 X48.706 Y76.022 E17.52508
G1 X50.555 Y76.543 E17.58897
G1 X51.477 Y76.285 E17.62082
G1 X53.476 Y76.139 E17.68748
G1 X55.815 Y76.8 E17.76832
G1 X57.272 Y76.389 E17.81867
G1 X59.283 Y76.243 E17.88574
G1 X61.543 Y76.88 E17.96383
G1 X62.269 Y76.677 E17.98891
G1 X64.265 Y76.531 E18.05547
G1 X67.332 Y77.395 E18.16145
G1 X69.075 Y78.345 E18.22747
G1 X71.119 Y80.504 E18.32636
G1 X72.047 Y81.963 E18.38387
G1 X72.843 Y84.675 E18.47788
G1 X73.008 Y86.709 E18.54575
G1 X72.83 Y87.336 E18.56743
G1 X73.689 Y87.801 E18.59992
G1 X75.829 Y90.021 E18.70247
G1 X76.802 Y91.513 E18.76172
G1 X77.826 Y94.93 E18.88036
G1 X77.68 Y97.044 E18.95084
G1 X76.924 Y99.715 E19.04317
G1 X76 Y101.401 E19.10711
G1 X73.744 Y103.601 E19.21192
G1 X72.246 Y104.548 E19.27086
G1 X71.963 Y104.644 E19.2808
G1 X71.87 Y104.975 E19.29224
G1 X72.206 Y106.106 E19.33148
G1 X72.371 Y108.147 E19.39959
G1 X71.601 Y110.879 E19.49399
G1 X71.127 Y111.777 E19.52777
G1 X71.247 Y112.189 E19.54204
G1 X71.412 Y114.168 E19.60809
G1 X70.494 Y117.442 E19.72118
G1 X69.907 Y118.553 E19.76298
G1 X70.67 Y119.764 E19.81058
G1 X71.509 Y122.657 E19.91077
G1 X71.611 Y123.944 E19.95371
G1 X71.808 Y124.256 E19.96598
G1 X72.645 Y127.134 E20.06567
G1 X72.81 Y129.144 E20.13275
G1 X72.47 Y130.345 E20.17426
G1 X73.088 Y132.444 E20.24704
G1 X73.253 Y134.467 E20.31455
G1 X72.31 Y137.813 E20.43017
G1 X71.441 Y139.459 E20.49208
G1 X69.185 Y141.715 E20.59819
G1 X67.56 Y142.761 E20.66247
G1 X64.462 Y143.619 E20.76939
G1 X62.875 Y143.726 E20.82229
G1 X62.134 Y144.198 E20.85151
G1 X58.54 Y145.216 E20.97575
G1 X56.504 Y145.051 E21.04369
G1 X53.901 Y144.287 E21.13392
G1 X53.71 Y144.197 E21.14094
G1 X50.924 Y144.969 E21.2371
G1 X48.935 Y145.114 E21.30343
G1 X45.681 Y144.174 E21.41608
G1 X44.419 Y143.504 E21.4636
G1 X43.411 Y144.164 E21.50368
G1 X40.284 Y145.028 E21.61158
G1 X38.168 Y145.156 E21.68209
G1 X34.997 Y144.233 E21.79193
G1 X33.373 Y143.357 E21.8533
G1 X32.995 Y142.977 E21.87113
G1 X30.842 Y143.573 E21.94543
G1 X28.787 Y143.718 E22.01395
G1 X28.105 Y143.52 E22.03757
G1 X26.078 Y144.081 E22.10752
G1 X24.039 Y144.226 E22.17551
G1 X20.797 Y143.278 E22.28786
G1 X19.159 Y142.395 E22.34975
G1 X16.863 Y140.099 E22.45775
G1 X15.84 Y138.506 E22.52071
G1 X14.963 Y135.514 E22.62442
G1 X14.816 Y133.383 E22.69546
G1 X15.753 Y130.196 E22.80595
G1 X16.517 Y128.728 E22.86099
G1 X16.42 Y128.4 E22.87237
G1 X16.273 Y126.307 E22.94215
G1 X17.187 Y123.156 E23.05127
G1 X17.36 Y122.822 E23.06379
G1 X16.857 Y121.117 E23.12291
G1 X16.71 Y119.013 E23.19306
G1 X17.436 Y116.507 E23.27984
G1 X17.022 Y115.097 E23.32871
G1 X16.915 Y113.559 E23.37999
G1 X16.059 Y112.239 E23.43232
G1 X15.37 Y109.911 E23.51307
G1 X15.223 Y107.751 E23.58508
G1 X15.744 Y105.978 E23.64654
G1 X15.669 Y104.973 E23.68006
G1 X13.973 Y104.059 E23.74414
G1 X11.721 Y101.807 E23.85007
G1 X10.722 Y100.265 E23.91117
G1 X9.853 Y97.322 E24.01324
G1 X9.706 Y95.171 E24.08495
G1 X10.62 Y92.062 E24.19273
G1 X11.421 Y90.525 E24.25037
G1 X13.537 Y88.29 E24.35274
G1 X15.17 Y87.139 E24.41919
G1 X16.167 Y86.861 E24.45362
G1 X16.036 Y84.898 E24.51905
G1 X16.938 Y82.029 E24.61908
G1 X17.716 Y80.453 E24.67754
G1 X19.853 Y78.25 E24.77962
G1 X21.564 Y77.155 E24.84718
G1 X24.312 Y76.317 E24.94274
G0 F9000 X24.393 Y76.711
G1 F1800 X26.307 Y76.521 E25.00671
G1 X29.156 Y77.256 E25.10457
G1 X29.297 Y77.311 E25.1096
G1 X31.552 Y76.707 E25.18725
G1 X32.706 Y76.628 E25.22572
G1 X34.46 Y76.931 E25.28492
G1 X34.561 Y76.962 E25.28844
G1 X35.33 Y76.726 E25.31519
G1 X37.264 Y76.537 E25.37982
G1 X39.494 Y77.134 E25.45661
G1 X41.467 Y76.578 E25.52478
G1 X43.361 Y76.44 E25.58795
G1 X45.285 Y76.982 E25.65443
G1 X46.779 Y76.564 E25.70603
G1 X48.666 Y76.426 E25.76896
G1 X50.555 Y76.958 E25.83423
G1 X51.545 Y76.681 E25.86842
G1 X53.435 Y76.543 E25.93145
G1 X55.815 Y77.216 E26.01371
G1 X57.342 Y76.785 E26.06649
G1 X59.242 Y76.647 E26.12985
G1 X61.542 Y77.296 E26.20933
G1 X62.337 Y77.073 E26.2368
G1 X64.225 Y76.935 E26.29976
G1 X67.179 Y77.767 E26.40183
G1 X68.829 Y78.667 E26.46434
G1 X70.802 Y80.751 E26.55979
G1 X71.678 Y82.128 E26.61408
G1 X72.447 Y84.748 E26.70489
G1 X72.603 Y86.67 E26.76903
G1 X72.358 Y87.535 E26.79893
G1 X73.444 Y88.124 E26.84002
G1 X75.515 Y90.272 E26.93926
G1 X76.436 Y91.684 E26.99533
G1 X77.422 Y94.975 E27.1096
G1 X77.284 Y96.974 E27.17624
G1 X76.551 Y99.563 E27.26574
G1 X75.677 Y101.158 E27.32623
G1 X73.497 Y103.284 E27.42751
G1 X72.032 Y104.21 E27.48515
G1 X71.639 Y104.319 E27.49872
G1 X71.454 Y104.979 E27.52152
G1 X71.81 Y106.181 E27.56321
G1 X71.966 Y108.109 E27.62755
G1 X71.228 Y110.728 E27.71805
G1 X70.698 Y111.733 E27.75584
G1 X70.851 Y112.26 E27.77409
G1 X71.007 Y114.131 E27.83654
G1 X70.121 Y117.291 E27.94569
G1 X69.445 Y118.57 E27.99381
G1 X70.302 Y119.932 E28.04733
G1 X71.113 Y122.727 E28.14412
G1 X71.22 Y124.074 E28.18907
G1 X71.44 Y124.422 E28.20276
G1 X72.249 Y127.205 E28.29916
G1 X72.405 Y129.105 E28.36256
G1 X72.054 Y130.347 E28.40549
G1 X72.692 Y132.517 E28.48072
G1 X72.848 Y134.429 E28.54452
G1 X71.937 Y137.662 E28.65624
G1 X71.115 Y139.219 E28.7148
G1 X68.93 Y141.404 E28.81758
G1 X67.395 Y142.392 E28.87829
G1 X64.396 Y143.223 E28.9818
G1 X62.747 Y143.334 E29.03677
G1 X61.97 Y143.829 E29.06741
G1 X58.501 Y144.811 E29.18732
G1 X56.577 Y144.655 E29.25152
G1 X54.014 Y143.903 E29.34036
G1 X53.752 Y143.771 E29.35012
G1 X50.858 Y144.573 E29.45
G1 X48.976 Y144.71 E29.51277
G1 X45.833 Y143.802 E29.62158
G1 X44.398 Y143.04 E29.67562
G1 X43.245 Y143.794 E29.72144
G1 X40.214 Y144.632 E29.82603
G1 X38.214 Y144.753 E29.89267
G1 X35.15 Y143.861 E29.99881
G1 X33.613 Y143.032 E30.0569
G1 X33.113 Y142.53 E30.08046
G1 X30.776 Y143.177 E30.16111
G1 X28.83 Y143.314 E30.226
G1 X28.107 Y143.104 E30.25104
G1 X26.007 Y143.685 E30.32351
G1 X24.082 Y143.822 E30.3877
G1 X20.95 Y142.906 E30.49623
G1 X19.401 Y142.071 E30.55476
G1 X17.177 Y139.847 E30.65937
G1 X16.208 Y138.338 E30.71902
G1 X15.359 Y135.442 E30.81939
G1 X15.22 Y133.428 E30.88654
G1 X16.126 Y130.346 E30.99338
G1 X16.83 Y128.993 E31.04411
G1 X16.962 Y128.824 E31.05124
G1 X16.816 Y128.327 E31.06847
G1 X16.677 Y126.349 E31.13442
G1 X17.559 Y123.308 E31.23974
G1 X17.79 Y122.864 E31.25638
G1 X17.253 Y121.044 E31.3195
G1 X17.114 Y119.055 E31.38581
G1 X17.853 Y116.505 E31.47411
G1 X17.418 Y115.025 E31.52542
G1 X17.307 Y113.427 E31.5787
G1 X16.427 Y112.07 E31.63249
G1 X15.766 Y109.837 E31.70995
G1 X15.627 Y107.796 E31.77799
G1 X16.148 Y106.022 E31.83948
G1 X16.047 Y104.653 E31.88514
G1 X15.764 Y104.57 E31.89495
G1 X14.215 Y103.735 E31.95348
G1 X12.035 Y101.555 E32.05602
G1 X11.089 Y100.095 E32.11388
G1 X10.249 Y97.249 E32.21258
G1 X10.11 Y95.216 E32.28035
G1 X10.993 Y92.212 E32.38449
G1 X11.751 Y90.757 E32.43906
G1 X13.799 Y88.594 E32.53813
G1 X15.344 Y87.506 E32.60098
G1 X16.619 Y87.15 E32.64501
G1 X16.575 Y86.969 E32.65121
G1 X16.44 Y84.948 E32.71858
G1 X17.32 Y82.149 E32.81616
G1 X18.047 Y80.686 E32.8705
G1 X20.105 Y78.564 E32.96882
G1 X21.733 Y77.522 E33.03311
G1 X24.393 Y76.711 E33.1256
G0 F9000 X24.474 Y77.105
G1 F1800 X26.277 Y76.926 E33.18586
G1 X29.056 Y77.643 E33.28132
G1 X29.268 Y77.733 E33.28898
G1 X31.617 Y77.103 E33.36987
G1 X32.686 Y77.03 E33.40551
G1 X34.344 Y77.314 E33.46146
G1 X34.562 Y77.38 E33.46903
G1 X35.412 Y77.12 E33.4986
G1 X37.231 Y76.942 E33.55938
G1 X39.497 Y77.549 E33.63741
G1 X41.537 Y76.974 E33.7079
G1 X43.32 Y76.844 E33.76736
G1 X45.284 Y77.398 E33.83524
G1 X46.847 Y76.96 E33.88922
G1 X48.626 Y76.83 E33.94855
G1 X50.555 Y77.373 E34.0152
G1 X51.613 Y77.077 E34.05174
G1 X53.394 Y76.947 E34.11114
G1 X55.815 Y77.632 E34.19482
G1 X57.412 Y77.181 E34.25002
G1 X59.201 Y77.051 E34.30968
G1 X61.541 Y77.711 E34.39054
G1 X62.405 Y77.469 E34.42038
G1 X64.185 Y77.339 E34.47974
G1 X67.026 Y78.139 E34.57791
G1 X68.583 Y78.989 E34.63691
G1 X70.485 Y80.998 E34.72893
G1 X71.309 Y82.293 E34.77998
G1 X72.051 Y84.821 E34.86761
