;FLAVOR:Marlin
;TIME:10739
;Filament used: 11.9937m
;Layer height: 0.2
;MINX:14.164
;MINY:47.35
;MINZ:0.2
;MAXX:101.869
;MAXY:171.55
;MAXZ:31.2
;TARGET_MACHINE.NAME:Creality Ender-3 V3 SE
;Generated with Cura_SteamEngine 5.8.1
M82 ;absolute extrusion mode
M220 S100 ;Reset Feedrate
M221 S100 ;Reset Flowrate

G28 ;Home

M420 S1; Use saved mesh leveling data

G92 E0 ;Reset Extruder
G1 Z2.0 F3000 ;Move Z Axis up
G1 X-3 Y20 Z0.28 F5000.0 ;Move to start position
M190 S65 ; Set bed temperature and wait
M109 S205.0 ; Set hotend temperature and wait
G1 X-3 Y100.0 Z0.28 F1500.0 E15 ;Draw the first line
G1 X-2 Y100.0 Z0.28 F5000.0 ;Move to side a little
G1 X-2 Y20 Z0.28 F1500.0 E30 ;Draw the second line
G92 E0 ;Reset Extruder
G1 E-1.0000 F1800 ;Retract a bit
G1 Z2.0 F3000 ;Move Z Axis up
G1 E0.0000 F1800 

G92 E0
G92 E0
G1 F2400 E-0.8
;LAYER_COUNT:155
;LAYER:0
M107
G1 F300 Z0.4
G0 F9000 X21.063 Y48.951 Z0.4
;TYPE:SKIRT
G1 F300 Z0.2
G1 F2400 E0
G1 F1800 X21.562 Y48.779 E0.01756
G1 X23.537 Y48.558 E0.08365
G1 X47.566 Y48.61 E0.88286
G1 X49.145 Y48.839 E0.93593
G1 X51.504 Y50.108 E1.02502
G1 X57.961 Y56.565 E1.32874
G1 X59.249 Y58.95 E1.41889
G1 X59.471 Y60.677 E1.47681
G1 X59.505 Y76.014 E1.98692
G1 X77.373 Y76.014 E2.58121
G1 X77.373 Y64.123 E2.97671
G1 X76.805 Y63.181 E3.01329
G1 X76.37 Y61.038 E3.08602
G1 X76.361 Y57.886 E3.19086
G1 X76.207 Y56.723 E3.22988
G1 X76.168 Y54.333 E3.30938
G1 X76.622 Y52.426 E3.37458
G1 X77.688 Y50.368 E3.45167
G1 X79.283 Y48.888 E3.52404
G1 X81.199 Y47.746 E3.59823
G1 X81.341 Y47.695 E3.60324
G1 X83.12 Y47.415 E3.66314
G1 X93.943 Y47.35 E4.02312
G1 X96.337 Y48.247 E4.10815
G1 X98.322 Y49.624 E4.18851
G1 X99.846 Y51.758 E4.27572
G1 X100.34 Y52.918 E4.31766
G1 X100.594 Y53.4 E4.33578
G1 X101.12 Y54.647 E4.38079
G1 X101.328 Y55.68 E4.41584
G1 X101.331 Y60.555 E4.57798
G1 X101.314 Y61.136 E4.59732
G1 X101.869 Y62.885 E4.65835
G1 X101.809 Y159.606 E7.8753
G1 X101.58 Y161.185 E7.92837
G1 X100.311 Y163.544 E8.01746
G1 X93.845 Y170.01 E8.3216
G1 X91.654 Y171.184 E8.40428
G1 X91.259 Y171.315 E8.41812
G1 X89.069 Y171.55 E8.49138
G1 X26.091 Y171.489 E10.58603
G1 X24.522 Y171.259 E10.63878
G1 X22.182 Y170.004 E10.72709
G1 X15.704 Y163.526 E11.0318
G1 X14.53 Y161.335 E11.11447
G1 X14.399 Y160.94 E11.12831
G1 X14.164 Y158.75 E11.20157
G1 X14.224 Y57.244 E14.57768
G1 X14.453 Y55.665 E14.63074
G1 X15.722 Y53.306 E14.71984
G1 X18.938 Y50.09 E14.87111
G1 X21.063 Y48.951 E14.9513
G0 F9000 X21.252 Y49.304
G1 F1800 X21.645 Y49.173 E14.96508
G1 X23.582 Y48.956 E15.0299
G1 X47.509 Y49.006 E15.82572
G1 X49.019 Y49.225 E15.87647
G1 X51.261 Y50.431 E15.96114
G1 X57.637 Y56.807 E16.26105
G1 X58.861 Y59.074 E16.34674
G1 X59.074 Y60.728 E16.4022
G1 X59.106 Y76.414 E16.92392
G1 X77.773 Y76.414 E17.54479
G1 X77.773 Y64.01 E17.95735
G1 X77.183 Y63.032 E17.99534
G1 X76.77 Y60.997 E18.0644
G1 X76.761 Y57.855 E18.16891
G1 X76.604 Y56.67 E18.20866
G1 X76.569 Y54.376 E18.28497
G1 X77 Y52.566 E18.34686
G1 X78.011 Y50.614 E18.41997
G1 X79.522 Y49.212 E18.48853
G1 X81.404 Y48.09 E18.5614
G1 X83.122 Y47.815 E18.61927
G1 X93.871 Y47.75 E18.97679
G1 X96.15 Y48.604 E19.05774
G1 X98.039 Y49.915 E19.13422
G1 X99.494 Y51.952 E19.21748
G1 X99.98 Y53.093 E19.25872
G1 X100.225 Y53.556 E19.27615
G1 X100.737 Y54.769 E19.31994
G1 X100.928 Y55.719 E19.35217
G1 X100.931 Y60.543 E19.51261
G1 X100.912 Y61.191 E19.53418
G1 X101.469 Y62.946 E19.59542
G1 X101.413 Y159.549 E22.80845
G1 X101.194 Y161.059 E22.85919
G1 X99.988 Y163.301 E22.94387
G1 X93.604 Y169.685 E23.24415
G1 X91.465 Y170.831 E23.32486
G1 X91.175 Y170.921 E23.33496
G1 X89.069 Y171.15 E23.40542
G1 X26.149 Y171.093 E25.49815
G1 X24.647 Y170.873 E25.54864
G1 X22.425 Y169.681 E25.63251
G1 X16.029 Y163.285 E25.93335
G1 X14.883 Y161.146 E26.01406
G1 X14.793 Y160.856 E26.02416
G1 X14.564 Y158.75 E26.09462
G1 X14.62 Y57.301 E29.46883
G1 X14.839 Y55.791 E29.51958
G1 X16.045 Y53.549 E29.60425
G1 X19.179 Y50.415 E29.75167
G1 X21.252 Y49.304 E29.82989
G0 F9000 X21.441 Y49.657
G1 F1800 X21.729 Y49.567 E29.83993
G1 X23.627 Y49.354 E29.90345
G1 X47.452 Y49.402 E30.69588
G1 X48.893 Y49.611 E30.7443
G1 X51.018 Y50.754 E30.82456
G1 X57.313 Y57.049 E31.12066
G1 X58.473 Y59.198 E31.20188
G1 X58.677 Y60.779 E31.2549
G1 X58.707 Y76.814 E31.78823
G1 X78.173 Y76.814 E32.43567
G1 X78.173 Y63.898 E32.86526
G1 X77.561 Y62.883 E32.90468
G1 X77.17 Y60.956 E32.97008
G1 X77.161 Y57.824 E33.07425
G1 X77.001 Y56.617 E33.11474
G1 X76.97 Y54.42 E33.18782
G1 X77.378 Y52.706 E33.24642
G1 X78.334 Y50.86 E33.31557
G1 X79.761 Y49.536 E33.38031
G1 X81.544 Y48.473 E33.44935
G1 X83.124 Y48.215 E33.5026
G1 X93.799 Y48.15 E33.85766
G1 X95.963 Y48.961 E33.93452
G1 X97.754 Y50.204 E34.00703
G1 X99.143 Y52.149 E34.08653
G1 X99.618 Y53.264 E34.12684
G1 X99.856 Y53.711 E34.14368
G1 X100.353 Y54.889 E34.1862
G1 X100.528 Y55.758 E34.21569
G1 X100.531 Y60.531 E34.37444
G1 X100.51 Y61.246 E34.39823
G1 X101.069 Y63.007 E34.45968
G1 X101.017 Y159.492 E37.66879
G1 X100.808 Y160.933 E37.71721
G1 X99.665 Y163.058 E37.79747
G1 X93.363 Y169.36 E38.09389
G1 X91.276 Y170.478 E38.17264
G1 X91.131 Y170.523 E38.17769
G1 X89.069 Y170.75 E38.24669
G1 X26.207 Y170.697 E40.33749
G1 X24.775 Y170.487 E40.38562
G1 X22.666 Y169.356 E40.46522
G1 X16.354 Y163.044 E40.76212
G1 X15.236 Y160.957 E40.84086
G1 X15.191 Y160.812 E40.84591
G1 X14.964 Y158.75 E40.91491
G1 X15.016 Y57.358 E44.28722
G1 X15.225 Y55.917 E44.33565
G1 X16.368 Y53.792 E44.4159
G1 X19.42 Y50.74 E44.55946
G1 X21.441 Y49.657 E44.63572
G0 F9000 X21.63 Y50.01
G1 F1800 X21.774 Y49.965 E44.64074
G1 X23.672 Y49.752 E44.70427
G1 X47.395 Y49.798 E45.4933
G1 X48.767 Y49.997 E45.53941
G1 X50.775 Y51.077 E45.61524
G1 X56.989 Y57.291 E45.90753
G1 X58.085 Y59.322 E45.98429
G1 X58.28 Y60.83 E46.03486
G1 X58.308 Y77.214 E46.5798
G1 X78.573 Y77.214 E47.25381
G1 X78.573 Y63.785 E47.70046
G1 X77.939 Y62.734 E47.74129
G1 X77.57 Y60.915 E47.80302
G1 X77.561 Y57.793 E47.90686
G1 X77.398 Y56.564 E47.94809
G1 X77.371 Y54.464 E48.01795
G1 X77.756 Y52.846 E48.07326
G1 X78.657 Y51.106 E48.13843
G1 X80 Y49.86 E48.19937
G1 X81.684 Y48.856 E48.26458
G1 X83.189 Y48.61 E48.3153
G1 X93.727 Y48.55 E48.6658
G1 X95.776 Y49.318 E48.73858
G1 X97.471 Y50.495 E48.80721
G1 X98.791 Y52.343 E48.88275
G1 X99.254 Y53.432 E48.9221
G1 X99.487 Y53.866 E48.93849
G1 X99.969 Y55.009 E48.97975
G1 X100.128 Y55.797 E49.00648
G1 X100.131 Y60.519 E49.16354
G1 X100.108 Y61.301 E49.18956
G1 X100.669 Y63.068 E49.25122
G1 X100.621 Y159.435 E52.4564
G1 X100.422 Y160.807 E52.50251
G1 X99.342 Y162.815 E52.57834
G1 X93.122 Y169.035 E52.87091
G1 X91.087 Y170.125 E52.9477
G1 X89.069 Y170.35 E53.01523
G1 X26.265 Y170.301 E55.1041
G1 X24.9 Y170.101 E55.14999
G1 X22.909 Y169.033 E55.22513
G1 X16.679 Y162.803 E55.51817
G1 X15.589 Y160.768 E55.59495
G1 X15.364 Y158.75 E55.66249
G1 X15.412 Y57.415 E59.03291
G1 X15.611 Y56.043 E59.07902
G1 X16.691 Y54.035 E59.15485
G1 X19.661 Y51.065 E59.29455
G1 X21.63 Y50.01 E59.36885
G0 F9000 X21.819 Y50.363
G1 F1800 X23.717 Y50.15 E59.43237
G1 X47.338 Y50.194 E60.21801
G1 X48.641 Y50.383 E60.2618
G1 X50.532 Y51.4 E60.33321
G1 X56.665 Y57.533 E60.62169
G1 X57.697 Y59.446 E60.69399
G1 X57.883 Y60.881 E60.74211
G1 X57.909 Y77.614 E61.29866
G1 X78.973 Y77.614 E61.99925
G1 X78.973 Y63.674 E62.46289
G1 X78.317 Y62.587 E62.50512
G1 X77.97 Y60.875 E62.56322
G1 X77.961 Y57.762 E62.66676
G1 X77.795 Y56.511 E62.70873
G1 X77.772 Y54.508 E62.77536
G1 X78.134 Y52.986 E62.82739
G1 X78.98 Y51.352 E62.88859
G1 X80.239 Y50.184 E62.94571
G1 X81.824 Y49.239 E63.00709
G1 X83.254 Y49.005 E63.05528
G1 X93.655 Y48.95 E63.40122
G1 X95.589 Y49.675 E63.46992
G1 X97.186 Y50.784 E63.53459
G1 X98.44 Y52.54 E63.60636
G1 X98.891 Y53.6 E63.64467
G1 X99.118 Y54.022 E63.66061
G1 X99.586 Y55.131 E63.70064
G1 X99.728 Y55.836 E63.72456
G1 X99.731 Y60.507 E63.87992
G1 X99.706 Y61.356 E63.90817
G1 X100.269 Y63.129 E63.97004
G1 X100.225 Y159.378 E67.1713
G1 X100.036 Y160.681 E67.21509
G1 X99.019 Y162.572 E67.2865
G1 X92.881 Y168.71 E67.57522
G1 X90.964 Y169.737 E67.64755
G1 X89.069 Y169.95 E67.71097
G1 X26.323 Y169.905 E69.79792
G1 X25.028 Y169.715 E69.84145
G1 X23.15 Y168.708 E69.91232
G1 X17.004 Y162.562 E70.20141
G1 X15.977 Y160.645 E70.27375
G1 X15.764 Y158.75 E70.33717
G1 X15.808 Y57.472 E73.70569
G1 X15.997 Y56.169 E73.74948
G1 X17.014 Y54.278 E73.8209
G1 X19.902 Y51.39 E73.95674
G1 X21.819 Y50.363 E74.02907
G0 F9000 X21.942 Y50.751
G1 F1800 X23.716 Y50.55 E74.08845
G1 X47.281 Y50.59 E74.87223
G1 X48.515 Y50.769 E74.9137
G1 X50.289 Y51.723 E74.9807
G1 X56.341 Y57.775 E75.26536
G1 X57.309 Y59.57 E75.33319
G1 X57.486 Y60.933 E75.37891
G1 X57.51 Y78.014 E75.94702
G1 X79.373 Y78.014 E76.67419
G1 X79.373 Y63.563 E77.15483
G1 X78.696 Y62.441 E77.19842
G1 X78.37 Y60.834 E77.25296
G1 X78.361 Y57.731 E77.35616
G1 X78.192 Y56.458 E77.39887
G1 X78.173 Y54.551 E77.4623
G1 X78.511 Y53.127 E77.51098
G1 X79.303 Y51.598 E77.56826
G1 X80.478 Y50.508 E77.62156
G1 X81.964 Y49.622 E77.6791
G1 X83.319 Y49.4 E77.72477
G1 X93.583 Y49.35 E78.06616
G1 X95.402 Y50.032 E78.13077
G1 X96.901 Y51.073 E78.19147
G1 X98.09 Y52.738 E78.25952
G1 X98.53 Y53.773 E78.29693
G1 X98.75 Y54.178 E78.31226
G1 X99.202 Y55.248 E78.35089
G1 X99.328 Y55.875 E78.37216
G1 X99.331 Y60.495 E78.52582
G1 X99.304 Y61.431 E78.55697
G1 X99.34 Y61.516 E78.56004
G1 X99.869 Y63.19 E78.61843
G1 X99.829 Y159.321 E81.81576
G1 X99.65 Y160.555 E81.85723
G1 X98.696 Y162.329 E81.92423
G1 X92.64 Y168.385 E82.20908
G1 X90.841 Y169.349 E82.27697
G1 X89.069 Y169.55 E82.33628
G1 X26.381 Y169.509 E84.42129
G1 X25.153 Y169.329 E84.46257
G1 X23.393 Y168.385 E84.529
G1 X17.329 Y162.321 E84.81423
G1 X16.365 Y160.522 E84.88211
G1 X16.164 Y158.75 E84.94143
G1 X16.204 Y57.529 E88.30805
G1 X16.383 Y56.295 E88.34953
G1 X17.337 Y54.521 E88.41652
G1 X20.143 Y51.715 E88.54851
G1 X21.942 Y50.751 E88.61639
G0 F9000 X22.065 Y51.139
G1 F1800 X23.715 Y50.95 E88.67163
G1 X47.224 Y50.986 E89.45354
G1 X48.389 Y51.155 E89.4927
G1 X50.046 Y52.046 E89.55527
G1 X56.017 Y58.017 E89.83613
G1 X56.921 Y59.694 E89.89949
G1 X57.089 Y60.985 E89.94279
G1 X57.11 Y78.414 E90.52248
G1 X79.773 Y78.414 E91.27626
G1 X79.773 Y63.451 E91.77393
G1 X79.074 Y62.292 E91.81895
G1 X78.77 Y60.793 E91.86982
G1 X78.761 Y57.7 E91.97269
G1 X78.589 Y56.405 E92.01614
G1 X78.573 Y54.595 E92.07635
G1 X78.888 Y53.268 E92.12171
G1 X79.626 Y51.844 E92.17505
G1 X80.717 Y50.832 E92.22455
G1 X82.104 Y50.005 E92.27826
G1 X83.384 Y49.795 E92.3214
G1 X93.511 Y49.75 E92.65823
G1 X95.215 Y50.389 E92.71876
G1 X96.616 Y51.362 E92.77549
G1 X97.739 Y52.935 E92.83977
G1 X98.171 Y53.951 E92.87649
G1 X98.398 Y54.369 E92.89231
G1 X98.818 Y55.368 E92.92836
G1 X98.928 Y55.914 E92.94688
G1 X98.931 Y60.485 E93.09892
G1 X98.908 Y61.374 E93.12849
G1 X98.89 Y61.495 E93.13256
G1 X98.959 Y61.637 E93.13781
G1 X99.469 Y63.251 E93.19411
G1 X99.433 Y159.264 E96.38752
G1 X99.264 Y160.429 E96.42667
G1 X98.373 Y162.086 E96.48925
G1 X92.399 Y168.06 E96.77024
G1 X90.718 Y168.961 E96.83368
G1 X89.069 Y169.15 E96.88888
G1 X26.439 Y169.113 E98.97197
G1 X25.278 Y168.943 E99.01099
G1 X23.636 Y168.062 E99.07297
G1 X17.654 Y162.08 E99.35435
G1 X16.753 Y160.399 E99.41778
G1 X16.564 Y158.75 E99.47299
G1 X16.6 Y57.586 E102.83771
G1 X16.769 Y56.421 E102.87687
G1 X17.66 Y54.764 E102.93944
G1 X20.384 Y52.04 E103.06757
G1 X22.065 Y51.139 E103.13101
G0 F9000 X22.188 Y51.527
G1 F1800 X23.714 Y51.35 E103.1821
G1 X47.167 Y51.382 E103.96215
G1 X48.263 Y51.541 E103.99899
G1 X49.803 Y52.369 E104.05714
G1 X55.693 Y58.259 E104.33419
G1 X56.533 Y59.818 E104.39309
G1 X56.692 Y61.037 E104.43398
G1 X56.71 Y78.814 E105.02524
G1 X80.173 Y78.814 E105.80563
G1 X80.173 Y63.34 E106.32029
G1 X79.452 Y62.145 E106.36671
G1 X79.17 Y60.753 E106.41395
G1 X79.161 Y57.672 E106.51643
G1 X78.986 Y56.352 E106.56071
G1 X78.973 Y54.639 E106.61769
G1 X79.265 Y53.409 E106.65974
G1 X79.949 Y52.09 E106.70915
G1 X80.956 Y51.156 E106.75484
G1 X82.244 Y50.388 E106.80471
G1 X83.449 Y50.19 E106.84533
G1 X93.438 Y50.15 E107.17757
G1 X95.029 Y50.747 E107.23409
G1 X96.331 Y51.651 E107.28681
G1 X97.388 Y53.132 E107.34732
G1 X97.811 Y54.126 E107.38325
G1 X98.029 Y54.524 E107.39835
G1 X98.434 Y55.488 E107.43312
G1 X98.528 Y55.953 E107.4489
G1 X98.531 Y60.475 E107.5993
G1 X98.508 Y61.364 E107.62888
G1 X98.468 Y61.556 E107.63541
G1 X98.578 Y61.758 E107.64306
G1 X99.069 Y63.312 E107.69726
G1 X99.037 Y159.207 E110.88674
G1 X98.878 Y160.303 E110.92358
G1 X98.05 Y161.843 E110.98173
G1 X92.158 Y167.735 E111.25887
G1 X90.595 Y168.573 E111.31786
G1 X89.069 Y168.75 E111.36895
G1 X26.497 Y168.717 E113.45011
G1 X25.406 Y168.557 E113.48678
G1 X23.877 Y167.737 E113.54449
G1 X17.979 Y161.839 E113.82191
G1 X17.141 Y160.276 E113.8809
G1 X16.964 Y158.75 E113.93199
G1 X16.996 Y57.643 E117.29483
G1 X17.155 Y56.547 E117.33166
G1 X17.983 Y55.007 E117.38982
G1 X20.625 Y52.365 E117.51409
G1 X22.188 Y51.527 E117.57307
G0 F9000 X22.309 Y51.915
G1 F1800 X23.714 Y51.75 E117.62013
G1 X47.11 Y51.778 E118.39828
G1 X48.137 Y51.927 E118.4328
G1 X49.56 Y52.692 E118.48653
G1 X55.369 Y58.501 E118.75977
G1 X56.145 Y59.942 E118.8142
G1 X56.295 Y61.089 E118.85268
G1 X56.31 Y79.214 E119.45552
G1 X80.573 Y79.214 E120.26251
G1 X80.573 Y63.198 E120.7952
G1 X80.474 Y63.075 E120.80045
G1 X79.83 Y61.999 E120.84216
G1 X79.57 Y60.713 E120.8858
G1 X79.561 Y57.641 E120.98798
G1 X79.383 Y56.299 E121.033
G1 X79.373 Y54.683 E121.08675
G1 X79.642 Y53.55 E121.12548
G1 X80.272 Y52.336 E121.17097
G1 X81.195 Y51.48 E121.21284
G1 X82.384 Y50.771 E121.25889
G1 X83.514 Y50.585 E121.29698
G1 X93.365 Y50.55 E121.62462
G1 X94.842 Y51.104 E121.67709
G1 X96.046 Y51.94 E121.72584
G1 X97.037 Y53.329 E121.78259
G1 X97.451 Y54.301 E121.81773
G1 X97.678 Y54.716 E121.83347
G1 X98.05 Y55.606 E121.86555
G1 X98.128 Y55.993 E121.87868
G1 X98.131 Y60.465 E122.02742
G1 X98.108 Y61.354 E122.057
G1 X98.038 Y61.621 E122.06618
G1 X98.197 Y61.879 E122.07626
G1 X98.669 Y63.373 E122.12837
G1 X98.641 Y159.15 E125.31393
G1 X98.492 Y160.177 E125.34844
G1 X97.727 Y161.6 E125.40218
G1 X91.915 Y167.412 E125.67555
G1 X90.474 Y168.185 E125.72994
G1 X89.069 Y168.35 E125.77699
G1 X26.555 Y168.321 E127.85622
G1 X25.531 Y168.171 E127.89064
G1 X24.12 Y167.414 E127.9439
G1 X18.302 Y161.596 E128.21756
G1 X17.529 Y160.155 E128.27195
G1 X17.364 Y158.75 E128.319
G1 X17.392 Y57.7 E131.67994
G1 X17.541 Y56.673 E131.71445
G1 X18.306 Y55.25 E131.76819
G1 X20.868 Y52.688 E131.8887
G1 X22.309 Y51.915 E131.94308
G0 F9000 X22.433 Y52.303
G1 F1800 X23.714 Y52.15 E131.98599
G1 X47.053 Y52.174 E132.76225
G1 X48.011 Y52.313 E132.79445
G1 X49.317 Y53.015 E132.84376
G1 X55.045 Y58.743 E133.11319
G1 X55.757 Y60.066 E133.16316
G1 X55.898 Y61.141 E133.19922
G1 X55.91 Y79.614 E133.81364
G1 X80.973 Y79.614 E134.64724
G1 X80.973 Y63.049 E135.19819
G1 X80.817 Y62.869 E135.20611
G1 X80.208 Y61.852 E135.24554
G1 X79.97 Y60.673 E135.28554
G1 X79.961 Y57.617 E135.38719
G1 X79.783 Y56.296 E135.43152
G1 X79.773 Y54.728 E135.48367
G1 X80.02 Y53.69 E135.51916
G1 X80.595 Y52.582 E135.56068
G1 X81.434 Y51.804 E135.59874
G1 X82.524 Y51.154 E135.64095
G1 X83.579 Y50.98 E135.67651
G1 X93.294 Y50.95 E135.99963
G1 X94.653 Y51.46 E136.04791
G1 X95.761 Y52.229 E136.09277
G1 X96.686 Y53.526 E136.14576
G1 X97.091 Y54.478 E136.18017
G1 X97.309 Y54.87 E136.19509
G1 X97.666 Y55.724 E136.22587
G1 X97.728 Y56.032 E136.23632
G1 X97.731 Y60.455 E136.38343
G1 X97.708 Y61.344 E136.41301
G1 X97.595 Y61.687 E136.42502
G1 X97.816 Y61.999 E136.43774
G1 X98.269 Y63.433 E136.48776
G1 X98.245 Y159.093 E139.66942
G1 X98.106 Y160.051 E139.70162
G1 X97.404 Y161.357 E139.75093
G1 X91.674 Y167.087 E140.02045
G1 X90.35 Y167.797 E140.07042
G1 X89.069 Y167.95 E140.11333
G1 X26.613 Y167.925 E142.19063
G1 X25.659 Y167.785 E142.2227
G1 X24.361 Y167.089 E142.27168
G1 X18.627 Y161.355 E142.54139
G1 X17.917 Y160.031 E142.59136
G1 X17.764 Y158.75 E142.63427
G1 X17.788 Y57.757 E145.99331
G1 X17.927 Y56.799 E146.02551
G1 X18.629 Y55.493 E146.07482
G1 X21.109 Y53.013 E146.19148
G1 X22.433 Y52.303 E146.24144
G0 F9000 X22.554 Y52.691
G1 F1800 X23.714 Y52.55 E146.28031
G1 X46.996 Y52.57 E147.05467
G1 X47.885 Y52.699 E147.08455
