;FLAVOR:Marlin
;TIME:5164
;Filament used: 4.60417m
;Layer height: 0.2
;MINX:14.09
;MINY:27.253
;MINZ:0.2
;MAXX:81.585
;MAXY:192.747
;MAXZ:2.2
;TARGET_MACHINE.NAME:Creality Ender-3 V3 SE
;Generated with Cura_SteamEngine 5.8.1
M82 ;absolute extrusion mode
M220 S100 ;Reset Feedrate
M221 S100 ;Reset Flowrate

G28 ;Home

M420 S1; Use saved mesh leveling data

G92 E0 ;Reset Extruder
G1 Z2.0 F3000 ;Move Z Axis up
G1 X-3 Y20 Z0.28 F5000.0 ;Move to start position
M190 S65 ; Set bed temperature and wait
M109 S205.0 ; Set hotend temperature and wait
G1 X-3 Y100.0 Z0.28 F1500.0 E15 ;Draw the first line
G1 X-2 Y100.0 Z0.28 F5000.0 ;Move to side a little
G1 X-2 Y20 Z0.28 F1500.0 E30 ;Draw the second line
G92 E0 ;Reset Extruder
G1 E-1.0000 F1800 ;Retract a bit
G1 Z2.0 F3000 ;Move Z Axis up
G1 E0.0000 F1800 

G92 E0
G92 E0
G1 F2400 E-0.8
;LAYER_COUNT:10
;LAYER:0
M107
G1 F300 Z0.4
G0 F9000 X22.074 Y28.802 Z0.4
;TYPE:SKIRT
G1 F300 Z0.2
G1 F2400 E0
G1 F1800 X24.459 Y27.514 E0.09015
G1 X26.186 Y27.292 E0.14807
G1 X68.816 Y27.253 E1.56595
G1 X70.965 Y27.484 E1.63783
G1 X71.366 Y27.6 E1.65172
G1 X73.592 Y28.793 E1.73572
G1 X80.045 Y35.246 E2.03925
G1 X81.219 Y37.437 E2.12192
G1 X81.35 Y37.832 E2.13576
G1 X81.585 Y40.022 E2.20902
G1 X81.525 Y180.834 E6.89245
G1 X81.296 Y182.413 E6.94552
G1 X80.027 Y184.772 E7.03461
G1 X73.592 Y191.207 E7.33729
G1 X71.401 Y192.381 E7.41997
G1 X71.006 Y192.512 E7.43381
G1 X68.815 Y192.747 E7.5071
G1 X26.003 Y192.687 E8.93103
G1 X24.424 Y192.458 E8.9841
G1 X22.065 Y191.189 E9.07319
G1 X15.63 Y184.754 E9.37588
G1 X14.456 Y182.563 E9.45855
G1 X14.325 Y182.168 E9.47239
G1 X14.09 Y179.978 E9.54565
G1 X14.15 Y39.166 E14.22908
G1 X14.379 Y37.587 E14.28214
G1 X15.648 Y35.228 E14.37124
G1 X22.074 Y28.802 E14.6735
G0 F9000 X22.316 Y29.126
G1 F1800 X24.583 Y27.902 E14.75918
G1 X26.237 Y27.689 E14.81465
G1 X68.816 Y27.653 E16.23084
G1 X70.922 Y27.882 E16.30129
G1 X71.212 Y27.972 E16.31139
G1 X73.351 Y29.118 E16.3921
G1 X79.72 Y35.487 E16.69168
G1 X80.866 Y37.626 E16.77239
G1 X80.956 Y37.916 E16.78249
G1 X81.185 Y40.022 E16.85295
G1 X81.129 Y180.777 E21.53448
G1 X80.91 Y182.287 E21.58523
G1 X79.704 Y184.529 E21.6699
G1 X73.351 Y190.882 E21.96873
G1 X71.212 Y192.028 E22.04944
G1 X70.922 Y192.118 E22.05954
G1 X68.816 Y192.347 E22.13
G1 X26.06 Y192.291 E23.55207
G1 X24.55 Y192.072 E23.60282
G1 X22.308 Y190.866 E23.68749
G1 X15.955 Y184.513 E23.98632
G1 X14.809 Y182.374 E24.06703
G1 X14.719 Y182.084 E24.07713
G1 X14.49 Y179.978 E24.14758
G1 X14.546 Y39.223 E28.82911
G1 X14.765 Y37.713 E28.87986
G1 X15.971 Y35.471 E28.96454
G1 X22.316 Y29.126 E29.26299
G0 F9000 X22.558 Y29.45
G1 F1800 X24.707 Y28.29 E29.34421
G1 X26.288 Y28.086 E29.39723
G1 X68.816 Y28.053 E30.81172
G1 X70.878 Y28.28 E30.88071
G1 X71.023 Y28.325 E30.88576
G1 X73.11 Y29.443 E30.96451
G1 X79.395 Y35.728 E31.26014
G1 X80.513 Y37.815 E31.33888
G1 X80.558 Y37.96 E31.34393
G1 X80.785 Y40.022 E31.41293
G1 X80.733 Y180.72 E36.09256
G1 X80.524 Y182.161 E36.14099
G1 X79.381 Y184.286 E36.22125
G1 X73.11 Y190.557 E36.51622
G1 X71.023 Y191.675 E36.59496
G1 X70.878 Y191.72 E36.60001
G1 X68.816 Y191.947 E36.66901
G1 X26.117 Y191.895 E38.08918
G1 X24.676 Y191.686 E38.13761
G1 X22.551 Y190.543 E38.21787
G1 X16.28 Y184.272 E38.51284
G1 X15.162 Y182.185 E38.59158
G1 X15.117 Y182.04 E38.59663
G1 X14.89 Y179.978 E38.66563
G1 X14.942 Y39.28 E43.34526
G1 X15.151 Y37.839 E43.39369
G1 X16.294 Y35.714 E43.47395
G1 X22.558 Y29.45 E43.76859
G0 F9000 X22.8 Y29.774
G1 F1800 X24.831 Y28.678 E43.84534
G1 X26.339 Y28.483 E43.89592
G1 X68.816 Y28.453 E45.30871
G1 X70.834 Y28.678 E45.37624
G1 X72.869 Y29.768 E45.45303
G1 X79.07 Y35.969 E45.7447
G1 X80.16 Y38.004 E45.82148
G1 X80.385 Y40.022 E45.88902
G1 X80.337 Y180.663 E50.56676
G1 X80.138 Y182.035 E50.61287
G1 X79.058 Y184.043 E50.6887
G1 X72.869 Y190.232 E50.97981
G1 X70.834 Y191.322 E51.0566
G1 X68.816 Y191.547 E51.12413
G1 X26.174 Y191.499 E52.54241
G1 X24.802 Y191.3 E52.58852
G1 X22.794 Y190.22 E52.66435
G1 X16.605 Y184.031 E52.95547
G1 X15.515 Y181.996 E53.03225
G1 X15.29 Y179.978 E53.09978
G1 X15.338 Y39.337 E57.77752
G1 X15.537 Y37.965 E57.82363
G1 X16.617 Y35.957 E57.89947
G1 X22.8 Y29.774 E58.1903
G0 F9000 X23.042 Y30.098
G1 F1800 X24.955 Y29.066 E58.26259
G1 X26.39 Y28.88 E58.31072
G1 X68.816 Y28.853 E59.72181
G1 X70.711 Y29.066 E59.78524
G1 X72.628 Y30.093 E59.85757
G1 X78.745 Y36.21 E60.1453
G1 X79.772 Y38.127 E60.21763
G1 X79.985 Y40.022 E60.28105
G1 X79.941 Y180.606 E64.9569
G1 X79.752 Y181.909 E65.00069
G1 X78.735 Y183.8 E65.0721
G1 X72.628 Y189.907 E65.35936
G1 X70.711 Y190.934 E65.43169
G1 X68.816 Y191.147 E65.49511
G1 X26.231 Y191.103 E66.9115
G1 X24.928 Y190.914 E66.95529
G1 X23.037 Y189.897 E67.0267
G1 X16.93 Y183.79 E67.31396
G1 X15.903 Y181.873 E67.38629
G1 X15.69 Y179.978 E67.44972
G1 X15.734 Y39.394 E72.12556
G1 X15.923 Y38.091 E72.16935
G1 X16.94 Y36.2 E72.24076
G1 X23.042 Y30.098 E72.52778
G0 F9000 X23.284 Y30.422
G1 F1800 X25.079 Y29.454 E72.59561
G1 X26.442 Y29.277 E72.64133
G1 X68.816 Y29.253 E74.05069
G1 X70.588 Y29.454 E74.11001
G1 X72.387 Y30.418 E74.17789
G1 X78.42 Y36.451 E74.46167
G1 X79.384 Y38.25 E74.52955
G1 X79.585 Y40.022 E74.58886
G1 X79.545 Y180.549 E79.26281
G1 X79.366 Y181.783 E79.30428
G1 X78.412 Y183.557 E79.37128
G1 X72.387 Y189.582 E79.65468
G1 X70.588 Y190.546 E79.72256
G1 X68.816 Y190.747 E79.78188
G1 X26.288 Y190.707 E81.19636
G1 X25.054 Y190.528 E81.23784
G1 X23.28 Y189.574 E81.30483
G1 X17.255 Y183.549 E81.58823
G1 X16.291 Y181.75 E81.65611
G1 X16.09 Y179.978 E81.71543
G1 X16.13 Y39.451 E86.38937
G1 X16.309 Y38.217 E86.43085
G1 X17.263 Y36.443 E86.49784
G1 X23.284 Y30.422 E86.78105
G0 F9000 X23.526 Y30.746
G1 F1800 X25.203 Y29.842 E86.84441
G1 X26.494 Y29.674 E86.88772
G1 X68.816 Y29.653 E88.29535
G1 X70.465 Y29.842 E88.35056
G1 X72.146 Y30.743 E88.41399
G1 X78.095 Y36.692 E88.69381
G1 X78.996 Y38.373 E88.75725
G1 X79.185 Y40.022 E88.81245
G1 X79.149 Y180.492 E93.4845
G1 X78.98 Y181.657 E93.52366
G1 X78.089 Y183.314 E93.58623
G1 X72.146 Y189.257 E93.86577
G1 X70.465 Y190.158 E93.92921
G1 X68.816 Y190.347 E93.98441
G1 X26.345 Y190.311 E95.39701
G1 X25.18 Y190.142 E95.43616
G1 X23.523 Y189.251 E95.49873
G1 X17.58 Y183.308 E95.77827
G1 X16.679 Y181.627 E95.84171
G1 X16.49 Y179.978 E95.89691
G1 X16.526 Y39.508 E100.56897
G1 X16.695 Y38.343 E100.60812
G1 X17.586 Y36.686 E100.67069
G1 X23.526 Y30.746 E100.95009
G0 F9000 X23.768 Y31.07
G1 F1800 X25.327 Y30.23 E101.00899
G1 X26.546 Y30.071 E101.04988
G1 X68.816 Y30.053 E102.45579
G1 X70.342 Y30.23 E102.50688
G1 X71.905 Y31.068 E102.56587
G1 X77.77 Y36.933 E102.84174
G1 X78.608 Y38.496 E102.90073
G1 X78.785 Y40.022 E102.95182
G1 X78.753 Y180.435 E107.62198
G1 X78.594 Y181.531 E107.65881
G1 X77.766 Y183.071 E107.71697
G1 X71.905 Y188.932 E107.99265
G1 X70.342 Y189.77 E108.05164
G1 X68.816 Y189.947 E108.10273
G1 X26.402 Y189.915 E109.51343
G1 X25.306 Y189.756 E109.55026
G1 X23.766 Y188.928 E109.60842
G1 X17.905 Y183.067 E109.8841
G1 X17.067 Y181.504 E109.94308
G1 X16.89 Y179.978 E109.99418
G1 X16.922 Y39.565 E114.66434
G1 X17.081 Y38.469 E114.70117
G1 X17.909 Y36.929 E114.75933
G1 X23.768 Y31.07 E115.03491
G0 F9000 X24.01 Y31.394
G1 F1800 X25.451 Y30.618 E115.08935
G1 X26.598 Y30.468 E115.12782
G1 X68.816 Y30.453 E116.532
G1 X70.221 Y30.618 E116.57905
G1 X71.662 Y31.391 E116.63344
G1 X77.447 Y37.176 E116.90555
G1 X78.22 Y38.617 E116.95994
G1 X78.385 Y40.022 E117.00699
G1 X78.357 Y180.378 E121.67525
G1 X78.208 Y181.405 E121.70976
G1 X77.443 Y182.828 E121.7635
G1 X71.662 Y188.609 E122.03542
G1 X70.221 Y189.382 E122.08981
G1 X68.816 Y189.547 E122.13686
G1 X26.459 Y189.519 E123.54566
G1 X25.432 Y189.37 E123.58018
G1 X24.009 Y188.605 E123.63391
G1 X18.228 Y182.824 E123.90583
G1 X17.455 Y181.383 E123.96022
G1 X17.29 Y179.978 E124.00727
G1 X17.318 Y39.622 E128.67553
G1 X17.467 Y38.595 E128.71005
G1 X18.232 Y37.172 E128.76378
G1 X24.01 Y31.394 E129.03556
G0 F9000 X24.252 Y31.718
G1 F1800 X25.575 Y31.006 E129.08553
G1 X26.65 Y30.865 E129.12159
G1 X68.816 Y30.853 E130.52404
G1 X70.097 Y31.006 E130.56695
G1 X71.421 Y31.716 E130.61692
G1 X77.122 Y37.417 E130.88507
G1 X77.832 Y38.741 E130.93504
G1 X77.985 Y40.022 E130.97795
G1 X77.961 Y180.321 E135.64432
G1 X77.822 Y181.279 E135.67651
G1 X77.12 Y182.585 E135.72583
G1 X71.421 Y188.284 E135.99389
G1 X70.097 Y188.994 E136.04386
G1 X68.816 Y189.147 E136.08677
G1 X26.516 Y189.123 E137.49367
G1 X25.558 Y188.984 E137.52587
G1 X24.252 Y188.282 E137.57519
G1 X18.553 Y182.583 E137.84325
G1 X17.843 Y181.259 E137.89322
G1 X17.69 Y179.978 E137.93613
G1 X17.714 Y39.679 E142.60249
G1 X17.853 Y38.721 E142.63469
G1 X18.555 Y37.415 E142.684
G1 X24.252 Y31.718 E142.95197
G0 F9000 X24.495 Y32.041
G1 F1800 X25.698 Y31.394 E142.9974
G1 X26.702 Y31.262 E143.03108
G1 X68.816 Y31.253 E144.4318
G1 X69.976 Y31.394 E144.47067
G1 X71.178 Y32.039 E144.51604
G1 X76.799 Y37.66 E144.78043
G1 X77.444 Y38.862 E144.8258
G1 X77.585 Y40.022 E144.86467
G1 X77.565 Y180.264 E149.52914
G1 X77.436 Y181.153 E149.55902
G1 X76.797 Y182.342 E149.60391
G1 X71.178 Y187.961 E149.86821
G1 X69.976 Y188.606 E149.91358
G1 X68.816 Y188.747 E149.95245
G1 X26.573 Y188.727 E151.35746
G1 X25.684 Y188.598 E151.38733
G1 X24.495 Y187.959 E151.43223
G1 X18.876 Y182.34 E151.69653
G1 X18.231 Y181.138 E151.7419
G1 X18.09 Y179.978 E151.78077
G1 X18.11 Y39.736 E156.44523
G1 X18.239 Y38.847 E156.47511
G1 X18.878 Y37.658 E156.52001
G1 X24.495 Y32.041 E156.78421
G0 F9000 X24.738 Y32.364
G1 F1800 X25.821 Y31.782 E156.82511
G1 X26.754 Y31.659 E156.85641
G1 X68.816 Y31.653 E158.25539
G1 X69.854 Y31.782 E158.29018
G1 X70.935 Y32.362 E158.33099
G1 X76.476 Y37.903 E158.59162
G1 X77.056 Y38.984 E158.63242
G1 X77.185 Y40.022 E158.66721
G1 X77.169 Y180.207 E163.32978
G1 X77.05 Y181.027 E163.35734
G1 X76.474 Y182.099 E163.39782
G1 X70.935 Y187.638 E163.65836
G1 X69.854 Y188.218 E163.69916
G1 X68.816 Y188.347 E163.73395
G1 X26.63 Y188.331 E165.13706
G1 X25.81 Y188.212 E165.16462
G1 X24.738 Y187.636 E165.20509
G1 X19.199 Y182.097 E165.46563
G1 X18.619 Y181.016 E165.50643
G1 X18.49 Y179.978 E165.54122
G1 X18.506 Y39.793 E170.2038
G1 X18.625 Y38.973 E170.23135
G1 X19.201 Y37.901 E170.27183
G1 X24.738 Y32.364 E170.53227
G0 F9000 X24.981 Y32.687
G1 F1800 X25.944 Y32.17 E170.56863
G1 X26.806 Y32.056 E170.59755
G1 X68.816 Y32.053 E171.99481
G1 X69.73 Y32.17 E172.02545
G1 X70.694 Y32.687 E172.06184
G1 X76.151 Y38.144 E172.31852
G1 X76.668 Y39.108 E172.3549
G1 X76.785 Y40.022 E172.38555
G1 X76.773 Y180.15 E177.04622
G1 X76.664 Y180.901 E177.07146
G1 X76.151 Y181.856 E177.10752
G1 X70.694 Y187.313 E177.3642
G1 X69.73 Y187.83 E177.40058
G1 X68.816 Y187.947 E177.43123
G1 X26.687 Y187.935 E178.83245
G1 X25.936 Y187.826 E178.85769
G1 X24.981 Y187.313 E178.89374
G1 X19.524 Y181.856 E179.15042
G1 X19.007 Y180.892 E179.18681
G1 X18.89 Y179.978 E179.21745
G1 X18.902 Y39.85 E183.87813
G1 X19.011 Y39.099 E183.90337
G1 X19.524 Y38.144 E183.93943
G1 X24.981 Y32.687 E184.19611
G0 F9000 X25.224 Y33.01
G1 F1800 X26.066 Y32.558 E184.22789
G1 X26.859 Y32.453 E184.2545
G1 X68.816 Y32.453 E185.64999
G1 X69.609 Y32.558 E185.6766
G1 X70.451 Y33.01 E185.70838
G1 X75.828 Y38.387 E185.9613
G1 X76.28 Y39.229 E185.99309
G1 X76.385 Y40.022 E186.01969
G1 X76.377 Y180.093 E190.67847
G1 X76.278 Y180.775 E190.70139
G1 X75.828 Y181.613 E190.73303
G1 X70.451 Y186.99 E190.98595
G1 X69.609 Y187.442 E191.01773
G1 X68.816 Y187.547 E191.04434
G1 X26.744 Y187.539 E192.44366
G1 X26.062 Y187.44 E192.46658
G1 X25.224 Y186.99 E192.49822
G1 X19.847 Y181.613 E192.75113
G1 X19.395 Y180.771 E192.78292
G1 X19.29 Y179.978 E192.80952
G1 X19.298 Y39.907 E197.46831
G1 X19.397 Y39.225 E197.49123
G1 X19.847 Y38.387 E197.52286
G1 X25.224 Y33.01 E197.77578
G0 F9000 X25.467 Y33.333
G1 F1800 X26.19 Y32.945 E197.80307
G1 X26.859 Y32.853 E197.82553
G1 X68.816 Y32.853 E199.22103
G1 X69.485 Y32.945 E199.24349
G1 X70.208 Y33.333 E199.27078
G1 X75.505 Y38.63 E199.51993
G1 X75.893 Y39.353 E199.54722
G1 X75.985 Y40.022 E199.56968
G1 X75.981 Y180.036 E204.22657
G1 X75.892 Y180.649 E204.24717
G1 X75.505 Y181.37 E204.27439
G1 X70.208 Y186.667 E204.52354
G1 X69.485 Y187.055 E204.55083
G1 X68.816 Y187.147 E204.57329
G1 X26.801 Y187.143 E205.97072
G1 X26.188 Y187.054 E205.99132
G1 X25.467 Y186.667 E206.01854
G1 X20.17 Y181.37 E206.26769
G1 X19.782 Y180.647 E206.29498
G1 X19.69 Y179.978 E206.31744
G1 X19.694 Y39.964 E210.97433
G1 X19.783 Y39.351 E210.99493
G1 X20.17 Y38.63 E211.02215
G1 X25.467 Y33.333 E211.2713
G0 F9000 X25.708 Y33.658
G1 F1800 X26.316 Y33.332 E211.29425
G1 X26.859 Y33.253 E211.3125
G1 X68.816 Y33.253 E212.70799
G1 X69.359 Y33.332 E212.72624
G1 X69.967 Y33.658 E212.74919
G1 X75.18 Y38.871 E212.99439
G1 X75.506 Y39.479 E213.01734
G1 X75.585 Y40.022 E213.03559
G1 X75.585 Y179.978 E217.69054
G1 X75.506 Y180.521 E217.70879
G1 X75.18 Y181.129 E217.73174
G1 X69.967 Y186.342 E217.97694
G1 X69.359 Y186.668 E217.99989
G1 X68.816 Y186.747 E218.01814
G1 X26.859 Y186.747 E219.41364
G1 X26.316 Y186.668 E219.43189
G1 X25.708 Y186.342 E219.45483
G1 X20.495 Y181.129 E219.70004
G1 X20.169 Y180.521 E219.72298
G1 X20.09 Y179.978 E219.74123
G1 X20.09 Y40.022 E224.39619
G1 X20.169 Y39.479 E224.41444
G1 X20.495 Y38.871 E224.43738
G1 X25.708 Y33.658 E224.68259
G0 F9000 X25.949 Y33.983
G1 F1800 X26.445 Y33.717 E224.70131
G1 X26.859 Y33.653 E224.71524
G1 X68.816 Y33.653 E226.11073
G1 X69.23 Y33.717 E226.12467
G1 X69.726 Y33.983 E226.14339
G1 X74.855 Y39.112 E226.38464
G1 X75.121 Y39.608 E226.40336
G1 X75.185 Y40.022 E226.41729
G1 X75.185 Y179.978 E231.07225
G1 X75.121 Y180.392 E231.08618
G1 X74.855 Y180.888 E231.1049
G1 X69.726 Y186.017 E231.34615
G1 X69.23 Y186.283 E231.36487
G1 X68.816 Y186.347 E231.37881
G1 X26.859 Y186.347 E232.7743
G1 X26.445 Y186.283 E232.78824
G1 X25.949 Y186.017 E232.80695
G1 X20.82 Y180.888 E233.04821
G1 X20.554 Y180.392 E233.06693
G1 X20.49 Y179.978 E233.08086
G1 X20.49 Y40.022 E237.73582
G1 X20.554 Y39.608 E237.74975
G1 X20.82 Y39.112 E237.76847
G1 X25.949 Y33.983 E238.00972
G0 F9000 X26.192 Y34.306
G1 F1800 X26.574 Y34.101 E238.02414
G1 X26.859 Y34.053 E238.03375
G1 X68.816 Y34.053 E239.42925
G1 X69.101 Y34.101 E239.43886
G1 X69.483 Y34.306 E239.45328
G1 X74.532 Y39.355 E239.69077
G1 X74.737 Y39.737 E239.70519
G1 X74.785 Y40.022 E239.7148
G1 X74.785 Y179.978 E244.36976
G1 X74.737 Y180.263 E244.37937
G1 X74.532 Y180.645 E244.39379
G1 X69.483 Y185.694 E244.63128
G1 X69.101 Y185.899 E244.6457
G1 X68.816 Y185.947 E244.65531
G1 X26.859 Y185.947 E246.05081
G1 X26.574 Y185.899 E246.06042
G1 X26.192 Y185.694 E246.07484
G1 X21.143 Y180.645 E246.31233
G1 X20.938 Y180.263 E246.32675
G1 X20.89 Y179.978 E246.33636
G1 X20.89 Y40.022 E250.99131
G1 X20.938 Y39.737 E251.00093
G1 X21.143 Y39.355 E251.01535
G1 X26.192 Y34.306 E251.25284
G0 F9000 X26.718 Y34.912
G1 F1800 X26.859 Y34.853 E251.25792
G1 X68.816 Y34.853 E252.65342
G1 X68.957 Y34.912 E252.6585
G1 X73.926 Y39.881 E252.89223
G1 X73.985 Y40.022 E252.89731
G1 X73.985 Y179.978 E257.55226
G1 X73.926 Y180.119 E257.55735
G1 X68.957 Y185.088 E257.79107
G1 X68.816 Y185.147 E257.79616
G1 X26.859 Y185.147 E259.19165
G1 X26.718 Y185.088 E259.19674
G1 X21.749 Y180.119 E259.43046
G1 X21.69 Y179.978 E259.43555
G1 X21.69 Y40.022 E264.0905
G1 X21.749 Y39.881 E264.09559
G1 X26.718 Y34.912 E264.32931
G0 F9000 X26.435 Y34.629
G1 F1800 X26.705 Y34.484 E264.33951
G1 X26.859 Y34.453 E264.34473
G1 X68.816 Y34.453 E265.74023
G1 X68.97 Y34.484 E265.74545
G1 X69.24 Y34.629 E265.75565
G1 X74.209 Y39.598 E265.98937
G1 X74.354 Y39.868 E265.99957
G1 X74.385 Y40.022 E266.00479
G1 X74.385 Y179.978 E270.65975
G1 X74.354 Y180.132 E270.66497
G1 X74.209 Y180.402 E270.67516
G1 X69.24 Y185.371 E270.90889
G1 X68.97 Y185.516 E270.91908
G1 X68.816 Y185.547 E270.92431
G1 X26.859 Y185.547 E272.3198
G1 X26.705 Y185.516 E272.32503
G1 X26.435 Y185.371 E272.33522
G1 X21.466 Y180.402 E272.56895
G1 X21.321 Y180.132 E272.57914
G1 X21.29 Y179.978 E272.58437
G1 X21.29 Y40.022 E277.23932
G1 X21.321 Y39.868 E277.24455
G1 X21.466 Y39.598 E277.25474
G1 X26.435 Y34.629 E277.48847
G1 F2400 E276.68847
G1 F300 Z0.4
;MESH:Chit_Acceptor_Front.stl
