;FLAVOR:Marlin
;TIME:2169
;Filament used: 1.76083m
;Layer height: 0.2
;MINX:13.137
;MINY:73.465
;MINZ:0.2
;MAXX:46.064
;MAXY:126.53
;MAXZ:19.6
;TARGET_MACHINE.NAME:Creality Ender-3 V3 SE
;Generated with Cura_SteamEngine 5.8.1
M82 ;absolute extrusion mode
M220 S100 ;Reset Feedrate
M221 S100 ;Reset Flowrate

G28 ;Home

M420 S1; Use saved mesh leveling data

G92 E0 ;Reset Extruder
G1 Z2.0 F3000 ;Move Z Axis up
G1 X-3 Y20 Z0.28 F5000.0 ;Move to start position
M190 S65 ; Set bed temperature and wait
M109 S205.0 ; Set hotend temperature and wait
G1 X-3 Y100.0 Z0.28 F1500.0 E15 ;Draw the first line
G1 X-2 Y100.0 Z0.28 F5000.0 ;Move to side a little
G1 X-2 Y20 Z0.28 F1500.0 E30 ;Draw the second line
G92 E0 ;Reset Extruder
G1 E-1.0000 F1800 ;Retract a bit
G1 Z2.0 F3000 ;Move Z Axis up
G1 E0.0000 F1800 

G92 E0
G92 E0
G1 F2400 E-0.8
;LAYER_COUNT:97
;LAYER:0
M107
G1 F300 Z0.4
G0 F9000 X24.72 Y74.183 Z0.4
;TYPE:SKIRT
G1 F300 Z0.2
G1 F2400 E0
G1 F1800 X26.972 Y73.677 E0.07677
G1 X29.682 Y73.465 E0.16718
G1 X32.482 Y73.712 E0.26067
G1 X35.031 Y74.336 E0.34795
G1 X38.015 Y75.769 E0.45805
G1 X40.338 Y77.411 E0.55267
G1 X41.603 Y78.606 E0.61055
G1 X43.821 Y81.546 E0.73304
G1 X44.605 Y83.034 E0.78898
G1 X45.784 Y86.531 E0.91172
G1 X46.064 Y88.372 E0.97366
G1 X46.035 Y91.969 E1.0933
G1 X45.673 Y93.943 E1.16005
G1 X44.722 Y96.804 E1.26033
G1 X43.171 Y99.473 E1.363
G1 X42.723 Y100.043 E1.38711
G1 X43.753 Y101.433 E1.44465
G1 X44.63 Y103.09 E1.50701
G1 X45.784 Y106.531 E1.62772
G1 X46.064 Y108.372 E1.68966
G1 X46.035 Y111.969 E1.8093
G1 X45.673 Y113.943 E1.87605
G1 X44.722 Y116.807 E1.97642
G1 X43.252 Y119.359 E2.07437
G1 X41.938 Y121.029 E2.14505
G1 X39.68 Y123.15 E2.24809
G1 X37.239 Y124.669 E2.34371
G1 X34.909 Y125.66 E2.42793
G1 X32.034 Y126.391 E2.52659
G1 X29.074 Y126.53 E2.62515
G1 X26.739 Y126.288 E2.70323
G1 X24.185 Y125.664 E2.79067
G1 X21.162 Y124.209 E2.90226
G1 X19.161 Y122.814 E2.98339
G1 X17.261 Y120.996 E3.07085
G1 X15.597 Y118.772 E3.16323
G1 X14.315 Y116.272 E3.25668
G1 X13.518 Y113.812 E3.34269
G1 X13.137 Y111.334 E3.42607
G1 X13.196 Y107.95 E3.53864
G1 X13.535 Y106.118 E3.60061
G1 X14.601 Y103.07 E3.70801
G1 X15.854 Y100.831 E3.79335
G1 X16.513 Y100.009 E3.82839
G1 X15.597 Y98.772 E3.87958
G1 X14.315 Y96.272 E3.97303
G1 X13.518 Y93.812 E4.05904
G1 X13.137 Y91.334 E4.14242
G1 X13.196 Y87.953 E4.25489
G1 X13.487 Y86.304 E4.31059
G1 X14.711 Y82.82 E4.43341
G1 X15.662 Y81.111 E4.49846
G1 X18.003 Y78.22 E4.62218
G1 X19.546 Y76.877 E4.69022
G1 X21.384 Y75.659 E4.76356
G1 X24.72 Y74.183 E4.88489
G0 F9000 X24.848 Y74.564
G1 F1800 X27.004 Y74.076 E4.95841
G1 X29.648 Y73.864 E5.04663
G1 X32.387 Y74.101 E5.13807
G1 X34.896 Y74.715 E5.22398
G1 X37.842 Y76.13 E5.33269
G1 X40.063 Y77.702 E5.42319
G1 X41.328 Y78.897 E5.48107
G1 X43.467 Y81.732 E5.59919
G1 X44.251 Y83.22 E5.65513
G1 X45.405 Y86.658 E5.77575
G1 X45.664 Y88.369 E5.8333
G1 X45.641 Y91.898 E5.95068
G1 X45.293 Y93.817 E6.01555
G1 X44.355 Y96.639 E6.11446
G1 X42.856 Y99.226 E6.2139
G1 X42.219 Y100.037 E6.2482
G1 X43.399 Y101.62 E6.31387
G1 X44.276 Y103.277 E6.37622
G1 X45.405 Y106.658 E6.49478
G1 X45.664 Y108.369 E6.55234
G1 X45.641 Y111.898 E6.66971
G1 X45.293 Y113.817 E6.73458
G1 X44.355 Y116.642 E6.83359
G1 X42.905 Y119.159 E6.9302
G1 X41.664 Y120.737 E6.99697
G1 X39.433 Y122.833 E7.09878
G1 X37.082 Y124.301 E7.19097
G1 X34.81 Y125.272 E7.27315
G1 X31.975 Y125.993 E7.37044
G1 X29.115 Y126.132 E7.46568
G1 X26.834 Y125.899 E7.54194
G1 X24.32 Y125.285 E7.62801
G1 X21.39 Y123.88 E7.73609
G1 X19.438 Y122.525 E7.81512
G1 X17.538 Y120.707 E7.90259
G1 X15.953 Y118.589 E7.99057
G1 X14.696 Y116.149 E8.08186
G1 X13.899 Y113.689 E8.16787
G1 X13.537 Y111.34 E8.24692
G1 X13.59 Y108.022 E8.35729
G1 X13.913 Y106.25 E8.4172
G1 X14.979 Y103.202 E8.5246
G1 X16.166 Y101.081 E8.60544
G1 X17.018 Y100.017 E8.65078
G1 X15.953 Y98.589 E8.71003
G1 X14.696 Y96.149 E8.80132
G1 X13.899 Y93.689 E8.88732
G1 X13.537 Y91.34 E8.96637
G1 X13.59 Y88.023 E9.07671
G1 X13.881 Y86.374 E9.13241
G1 X15.061 Y83.015 E9.25082
G1 X16.012 Y81.306 E9.31587
G1 X18.266 Y78.522 E9.43501
G1 X19.809 Y77.179 E9.50305
G1 X21.546 Y76.025 E9.57241
G1 X24.848 Y74.564 E9.6925
G0 F9000 X24.975 Y74.945
G1 F1800 X27.036 Y74.475 E9.76281
G1 X29.68 Y74.263 E9.85103
G1 X32.292 Y74.49 E9.93824
G1 X34.761 Y75.094 E10.02278
G1 X37.611 Y76.457 E10.12785
G1 X39.788 Y77.993 E10.21647
G1 X41.053 Y79.188 E10.27435
G1 X43.113 Y81.918 E10.3881
G1 X43.897 Y83.406 E10.44404
G1 X45.01 Y86.719 E10.56028
G1 X45.264 Y88.366 E10.61571
G1 X45.241 Y91.895 E10.73308
G1 X44.913 Y93.691 E10.79381
G1 X43.988 Y96.475 E10.89138
G1 X42.51 Y99.025 E10.98941
G1 X41.714 Y100.03 E11.03205
G1 X43.045 Y101.807 E11.10589
G1 X43.922 Y103.464 E11.16825
G1 X45.01 Y106.719 E11.2824
G1 X45.264 Y108.366 E11.33783
G1 X45.241 Y111.895 E11.4552
G1 X44.913 Y113.691 E11.51593
G1 X43.988 Y116.477 E11.61356
G1 X42.558 Y118.959 E11.70884
G1 X41.39 Y120.445 E11.7717
G1 X39.185 Y122.516 E11.87232
G1 X36.924 Y123.933 E11.96106
G1 X34.711 Y124.884 E12.04118
G1 X31.911 Y125.596 E12.13727
G1 X29.155 Y125.734 E12.22905
G1 X26.929 Y125.51 E12.30346
G1 X24.453 Y124.905 E12.38824
G1 X21.618 Y123.551 E12.49273
G1 X19.666 Y122.196 E12.57176
G1 X17.858 Y120.467 E12.65497
G1 X16.308 Y118.405 E12.74077
G1 X15.077 Y116.026 E12.82986
G1 X14.28 Y113.566 E12.91586
G1 X13.937 Y111.346 E12.99058
G1 X13.984 Y108.093 E13.09878
G1 X14.291 Y106.382 E13.1566
G1 X15.357 Y103.334 E13.264
G1 X16.515 Y101.277 E13.34251
G1 X17.524 Y100.025 E13.39599
G1 X16.308 Y98.405 E13.46337
G1 X15.077 Y96.026 E13.55246
G1 X14.28 Y93.566 E13.63846
G1 X13.937 Y91.346 E13.71318
G1 X13.984 Y88.093 E13.82138
G1 X14.275 Y86.444 E13.87708
G1 X15.411 Y83.21 E13.99108
G1 X16.362 Y81.501 E14.05613
G1 X18.529 Y78.824 E14.17069
G1 X20.072 Y77.481 E14.23872
G1 X21.708 Y76.391 E14.30411
G1 X24.975 Y74.945 E14.42294
G0 F9000 X25.102 Y75.327
G1 F1800 X27.068 Y74.874 E14.49004
G1 X29.712 Y74.662 E14.57826
G1 X32.197 Y74.879 E14.66123
G1 X34.628 Y75.474 E14.74447
G1 X37.381 Y76.784 E14.84587
G1 X39.513 Y78.284 E14.93258
G1 X40.778 Y79.479 E14.99045
G1 X42.759 Y82.104 E15.09983
G1 X43.543 Y83.592 E15.15577
G1 X44.615 Y86.781 E15.26767
G1 X44.864 Y88.364 E15.32097
G1 X44.847 Y91.824 E15.43605
G1 X44.533 Y93.565 E15.49489
G1 X43.621 Y96.311 E15.59113
G1 X42.164 Y98.824 E15.68775
G1 X41.208 Y100.023 E15.73875
G1 X42.691 Y101.994 E15.82079
G1 X43.568 Y103.651 E15.88314
G1 X44.615 Y106.781 E15.99292
G1 X44.864 Y108.364 E16.04622
G1 X44.847 Y111.824 E16.1613
G1 X44.533 Y113.565 E16.22014
G1 X43.621 Y116.312 E16.31641
G1 X42.211 Y118.759 E16.41034
G1 X41.116 Y120.153 E16.4693
G1 X38.939 Y122.198 E16.56864
G1 X36.766 Y123.565 E16.65403
G1 X34.553 Y124.516 E16.73414
G1 X31.853 Y125.198 E16.82676
G1 X29.135 Y125.334 E16.91728
G1 X27.024 Y125.121 E16.98785
G1 X24.586 Y124.525 E17.07132
G1 X21.846 Y123.222 E17.17223
G1 X19.894 Y121.867 E17.25127
G1 X18.177 Y120.226 E17.33026
G1 X16.663 Y118.221 E17.41383
G1 X15.458 Y115.903 E17.50072
G1 X14.661 Y113.443 E17.58672
G1 X14.337 Y111.351 E17.65713
G1 X14.378 Y108.163 E17.76318
G1 X14.669 Y106.514 E17.81887
G1 X15.735 Y103.466 E17.92627
G1 X16.827 Y101.528 E18.00025
G1 X18.031 Y100.033 E18.0641
G1 X16.663 Y98.221 E18.13961
G1 X15.458 Y95.903 E18.2265
G1 X14.661 Y93.443 E18.31251
G1 X14.337 Y91.351 E18.38292
G1 X14.378 Y88.163 E18.48896
G1 X14.669 Y86.514 E18.54466
G1 X15.761 Y83.405 E18.65426
G1 X16.712 Y81.696 E18.71931
G1 X18.792 Y79.126 E18.82927
G1 X20.335 Y77.783 E18.89731
G1 X21.87 Y76.757 E18.95872
G1 X25.102 Y75.327 E19.07627
G0 F9000 X25.228 Y75.709
G1 F1800 X27.1 Y75.273 E19.1402
G1 X29.744 Y75.061 E19.22842
G1 X32.102 Y75.268 E19.30715
G1 X34.498 Y75.854 E19.38919
G1 X37.151 Y77.111 E19.48683
G1 X39.238 Y78.575 E19.57162
G1 X40.503 Y79.77 E19.6295
G1 X42.405 Y82.29 E19.73451
G1 X43.189 Y83.778 E19.79045
G1 X44.22 Y86.844 E19.89803
G1 X44.464 Y88.363 E19.9492
G1 X44.453 Y91.754 E20.06199
G1 X44.153 Y93.439 E20.11891
G1 X43.254 Y96.147 E20.21382
G1 X41.818 Y98.623 E20.30902
G1 X40.701 Y100.016 E20.3684
G1 X42.371 Y102.235 E20.46077
G1 X43.189 Y103.778 E20.51886
G1 X44.22 Y106.844 E20.62645
G1 X44.464 Y108.363 E20.67762
G1 X44.453 Y111.754 E20.7904
G1 X44.153 Y113.439 E20.84733
G1 X43.254 Y116.147 E20.94223
G1 X41.864 Y118.559 E21.03482
G1 X40.842 Y119.861 E21.08987
G1 X38.69 Y121.883 E21.18809
G1 X36.608 Y123.197 E21.26997
G1 X34.395 Y124.148 E21.35008
G1 X31.796 Y124.8 E21.43921
G1 X29.115 Y124.934 E21.52849
G1 X27.119 Y124.732 E21.59521
G1 X24.721 Y124.146 E21.67732
G1 X22.074 Y122.893 E21.77472
G1 X20.122 Y121.538 E21.85376
G1 X18.496 Y119.984 E21.92857
G1 X17.018 Y118.036 E22.00989
G1 X15.839 Y115.78 E22.09456
G1 X15.042 Y113.32 E22.18056
G1 X14.737 Y111.355 E22.2467
G1 X14.772 Y108.233 E22.35055
G1 X15.063 Y106.584 E22.40624
G1 X16.112 Y103.599 E22.51148
G1 X17.138 Y101.779 E22.58096
G1 X18.539 Y100.04 E22.65524
G1 X17.018 Y98.036 E22.73892
G1 X15.839 Y95.78 E22.82358
G1 X15.042 Y93.32 E22.90959
G1 X14.737 Y91.355 E22.97573
G1 X14.772 Y88.233 E23.07957
G1 X15.063 Y86.584 E23.13526
G1 X16.111 Y83.6 E23.24046
G1 X17.062 Y81.891 E23.30551
G1 X19.055 Y79.428 E23.41088
G1 X20.598 Y78.085 E23.47892
G1 X22.032 Y77.123 E23.53636
G1 X25.228 Y75.709 E23.65259
G0 F9000 X25.356 Y76.09
G1 F1800 X27.132 Y75.672 E23.71328
G1 X29.776 Y75.46 E23.8015
G1 X32.007 Y75.657 E23.87599
G1 X34.364 Y76.233 E23.95669
G1 X36.922 Y77.439 E24.05075
G1 X38.963 Y78.866 E24.13358
G1 X40.228 Y80.061 E24.19146
G1 X42.051 Y82.476 E24.2921
G1 X42.835 Y83.964 E24.34804
G1 X43.825 Y86.909 E24.45138
G1 X44.064 Y88.362 E24.50036
G1 X44.059 Y91.685 E24.61088
G1 X43.773 Y93.313 E24.66586
G1 X42.886 Y95.985 E24.7595
G1 X41.505 Y98.373 E24.85125
G1 X40.424 Y99.727 E24.90887
G1 X40.166 Y99.971 E24.92068
G1 X42.051 Y102.476 E25.02495
G1 X42.835 Y103.964 E25.08089
G1 X43.825 Y106.909 E25.18423
G1 X44.064 Y108.362 E25.23321
G1 X44.059 Y111.685 E25.34373
G1 X43.773 Y113.313 E25.39871
G1 X42.887 Y115.982 E25.49224
G1 X41.517 Y118.359 E25.58349
G1 X40.568 Y119.569 E25.63464
G1 X38.442 Y121.566 E25.73165
G1 X36.45 Y122.829 E25.8101
G1 X34.237 Y123.78 E25.89022
G1 X31.74 Y124.402 E25.97581
G1 X29.095 Y124.534 E26.06389
G1 X27.214 Y124.343 E26.12677
G1 X24.853 Y123.766 E26.20761
G1 X22.302 Y122.564 E26.3014
G1 X20.35 Y121.209 E26.38044
G1 X18.815 Y119.742 E26.45106
G1 X17.337 Y117.794 E26.53239
G1 X16.22 Y115.657 E26.61259
G1 X15.423 Y113.197 E26.69859
G1 X15.137 Y111.359 E26.76046
G1 X15.166 Y108.303 E26.86211
G1 X15.457 Y106.654 E26.9178
G1 X16.461 Y103.795 E27.01859
G1 X17.45 Y102.03 E27.08588
G1 X19.08 Y100.006 E27.17231
G1 X18.815 Y99.742 E27.18475
G1 X17.337 Y97.794 E27.26608
G1 X16.22 Y95.657 E27.34628
G1 X15.423 Y93.197 E27.43229
G1 X15.137 Y91.359 E27.49416
G1 X15.166 Y88.303 E27.59581
G1 X15.457 Y86.654 E27.6515
G1 X16.461 Y83.795 E27.75228
G1 X17.412 Y82.086 E27.81733
G1 X19.318 Y79.73 E27.91813
G1 X20.861 Y78.387 E27.98616
G1 X22.254 Y77.456 E28.04189
G1 X25.356 Y76.09 E28.15462
G0 F9000 X25.483 Y76.471
G1 F1800 X27.164 Y76.071 E28.21209
G1 X29.808 Y75.859 E28.30032
G1 X31.912 Y76.046 E28.37057
G1 X34.232 Y76.613 E28.45001
G1 X36.693 Y77.767 E28.54041
G1 X38.688 Y79.157 E28.62128
G1 X39.953 Y80.352 E28.67916
G1 X41.697 Y82.662 E28.77543
G1 X42.481 Y84.15 E28.83137
G1 X43.43 Y86.974 E28.93046
G1 X43.669 Y88.427 E28.97943
G1 X43.665 Y91.617 E29.08553
G1 X43.393 Y93.187 E29.13853
G1 X42.519 Y95.819 E29.23077
G1 X41.192 Y98.123 E29.3192
G1 X40.111 Y99.477 E29.37683
G1 X39.564 Y99.984 E29.40164
G1 X39.953 Y100.352 E29.41945
G1 X41.697 Y102.662 E29.51572
G1 X42.481 Y104.15 E29.57166
G1 X43.43 Y106.974 E29.67075
G1 X43.669 Y108.427 E29.71972
G1 X43.665 Y111.617 E29.82582
G1 X43.393 Y113.187 E29.87882
G1 X42.519 Y115.819 E29.97106
G1 X41.201 Y118.113 E30.05905
G1 X40.294 Y119.277 E30.10813
G1 X38.194 Y121.25 E30.20397
G1 X36.236 Y122.491 E30.28107
G1 X34.14 Y123.392 E30.35696
G1 X31.679 Y124.005 E30.44131
G1 X29.135 Y124.136 E30.52604
G1 X27.309 Y123.954 E30.58707
G1 X24.985 Y123.386 E30.66664
G1 X22.53 Y122.235 E30.75682
G1 X20.578 Y120.88 E30.83586
G1 X19.134 Y119.5 E30.90229
G1 X17.656 Y117.552 E30.98362
G1 X16.601 Y115.534 E31.05936
G1 X15.804 Y113.074 E31.14536
G1 X15.537 Y111.362 E31.20299
G1 X15.56 Y108.373 E31.30241
G1 X15.851 Y106.724 E31.3581
G1 X16.811 Y103.99 E31.45448
G1 X17.762 Y102.281 E31.51953
G1 X19.62 Y99.973 E31.61808
G1 X19.134 Y99.5 E31.64063
G1 X17.656 Y97.552 E31.72196
G1 X16.601 Y95.534 E31.7977
G1 X15.804 Y93.074 E31.88371
G1 X15.537 Y91.362 E31.94134
G1 X15.56 Y88.373 E32.04075
G1 X15.851 Y86.724 E32.09645
G1 X16.811 Y83.99 E32.19282
G1 X17.762 Y82.281 E32.25787
G1 X19.581 Y80.032 E32.35408
G1 X21.124 Y78.689 E32.42212
G1 X22.476 Y77.789 E32.47614
G1 X25.483 Y76.471 E32.58533
G0 F9000 X25.577 Y76.86
G1 F1800 X27.197 Y76.47 E32.64076
G1 X29.773 Y76.258 E32.72672
G1 X31.817 Y76.435 E32.79496
G1 X34.103 Y76.994 E32.87323
G1 X36.465 Y78.096 E32.95992
G1 X38.413 Y79.448 E33.03879
G1 X39.678 Y80.643 E33.09667
G1 X41.343 Y82.848 E33.18857
G1 X42.127 Y84.336 E33.24451
G1 X43.035 Y87.039 E33.33935
G1 X43.274 Y88.492 E33.38832
G1 X43.271 Y91.55 E33.49003
G1 X43.013 Y93.061 E33.54102
G1 X42.151 Y95.656 E33.63196
G1 X40.879 Y97.873 E33.71698
G1 X39.798 Y99.227 E33.7746
G1 X38.977 Y99.98 E33.81166
G1 X39.678 Y100.643 E33.84375
G1 X41.343 Y102.848 E33.93565
G1 X42.127 Y104.336 E33.99159
G1 X43.035 Y107.039 E34.08642
G1 X43.274 Y108.492 E34.1354
G1 X43.271 Y111.55 E34.23711
G1 X43.013 Y113.061 E34.28809
G1 X42.151 Y115.656 E34.37904
G1 X40.885 Y117.867 E34.46378
G1 X39.978 Y119.031 E34.51286
G1 X37.949 Y120.932 E34.60534
G1 X36.022 Y122.153 E34.68121
G1 X34.043 Y123.004 E34.75286
G1 X31.618 Y123.608 E34.83598
G1 X29.174 Y123.738 E34.91739
G1 X27.404 Y123.565 E34.97654
G1 X25.119 Y123.006 E35.05478
G1 X22.758 Y121.906 E35.14141
G1 X20.806 Y120.551 E35.22044
G1 X19.453 Y119.258 E35.28269
G1 X17.975 Y117.31 E35.36402
G1 X16.981 Y115.41 E35.43534
G1 X16.199 Y113.011 E35.51926
G1 X15.937 Y111.364 E35.57473
G1 X15.954 Y108.443 E35.67188
G1 X16.245 Y106.794 E35.72758
G1 X17.161 Y104.185 E35.81954
G1 X18.112 Y102.476 E35.88459
G1 X19.845 Y100.331 E35.97631
G1 X20.224 Y99.999 E35.99307
G1 X19.453 Y99.258 E36.02864
G1 X17.975 Y97.31 E36.10997
G1 X16.981 Y95.41 E36.18129
G1 X16.199 Y93.011 E36.26521
G1 X15.937 Y91.364 E36.32068
G1 X15.954 Y88.443 E36.41783
G1 X16.245 Y86.794 E36.47352
G1 X17.161 Y84.185 E36.56549
G1 X18.112 Y82.476 E36.63054
G1 X19.844 Y80.333 E36.72219
G1 X21.346 Y79.022 E36.7885
G1 X22.698 Y78.122 E36.84252
G1 X25.577 Y76.86 E36.94707
G0 F9000 X25.672 Y77.249
G1 F1800 X27.23 Y76.869 E37.00041
G1 X29.806 Y76.657 E37.08638
G1 X31.722 Y76.824 E37.15034
G1 X33.97 Y77.374 E37.22732
G1 X36.296 Y78.459 E37.31268
G1 X38.138 Y79.739 E37.38729
G1 X39.403 Y80.934 E37.44517
G1 X40.989 Y83.034 E37.5327
G1 X41.773 Y84.522 E37.58864
G1 X42.64 Y87.104 E37.67923
G1 X42.879 Y88.557 E37.7282
G1 X42.876 Y91.484 E37.82555
G1 X42.633 Y92.935 E37.87449
G1 X41.782 Y95.496 E37.96425
G1 X40.566 Y97.624 E38.04576
G1 X39.527 Y98.932 E38.10132
G1 X38.39 Y99.976 E38.15266
G1 X39.403 Y100.934 E38.19904
G1 X40.989 Y103.034 E38.28656
G1 X41.773 Y104.522 E38.3425
G1 X42.64 Y107.104 E38.43309
G1 X42.879 Y108.557 E38.48207
G1 X42.876 Y111.484 E38.57942
G1 X42.633 Y112.935 E38.62836
G1 X41.782 Y115.496 E38.71811
G1 X40.569 Y117.621 E38.7995
G1 X39.662 Y118.785 E38.84858
G1 X37.704 Y120.613 E38.93767
G1 X35.808 Y121.815 E39.01234
G1 X33.946 Y122.616 E39.07975
G1 X31.557 Y123.211 E39.16164
G1 X29.212 Y123.34 E39.23975
G1 X27.499 Y123.176 E39.29699
G1 X25.252 Y122.626 E39.37393
G1 X22.927 Y121.543 E39.45924
G1 X21.082 Y120.261 E39.53396
G1 X19.772 Y119.016 E39.59407
G1 X18.294 Y117.068 E39.6754
G1 X17.361 Y115.285 E39.74233
G1 X16.594 Y112.947 E39.82417
G1 X16.337 Y111.366 E39.87745
G1 X16.348 Y108.513 E39.97234
G1 X16.639 Y106.864 E40.02803
G1 X17.511 Y104.38 E40.11559
G1 X18.462 Y102.671 E40.18064
G1 X20.109 Y100.632 E40.26782
G1 X20.817 Y100.011 E40.29914
G1 X19.772 Y99.016 E40.34713
G1 X18.294 Y97.068 E40.42846
G1 X17.361 Y95.285 E40.49539
G1 X16.594 Y92.947 E40.57723
G1 X16.337 Y91.366 E40.63051
G1 X16.348 Y88.513 E40.7254
